;FLAVOR:Marlin
;TIME:9997
;Filament used: 11.1853m
;Layer height: 0.2
;MINX:63.291
;MINY:63.291
;MINZ:0.3
;MAXX:156.709
;MAXY:156.709
;MAXZ:9.9
;Generated with Cura_SteamEngine 4.10.0
M140 S60
M105
M190 S60
M104 S210
M105
M109 S210
M82 ;absolute extrusion mode
G28 ;Home
G1 Z15.0 F2000 ;Move the platform
G92 E0
G92 E0
G1 F1500 E-6.5
;LAYER_COUNT:50
;LAYER:0
M107
M204 S1000
G0 F9000 X78.78 Y75.157 Z0.3
;TYPE:SKIRT
G1 F1500 E0
G1 F1800 X78.907 Y75.041 E0.00858
G1 X79.3 Y74.697 E0.03464
G1 X79.872 Y74.209 E0.07215
G1 X80.413 Y73.76 E0.10723
G1 X80.934 Y73.408 E0.13859
G1 X81.188 Y73.27 E0.15302
G1 X83.63 Y71.908 E0.29252
G1 X85.97 Y70.513 E0.42843
G1 X88.283 Y69.045 E0.56511
G1 X90.049 Y67.86 E0.67121
G1 X90.581 Y67.495 E0.7034
G1 X91.017 Y67.244 E0.7285
G1 X91.228 Y67.146 E0.7401
G1 X91.748 Y66.923 E0.76833
G1 X92.403 Y66.653 E0.80368
G1 X93.037 Y66.4 E0.83773
G1 X93.372 Y66.287 E0.85537
G1 X93.672 Y66.217 E0.87074
G1 X93.883 Y66.178 E0.88144
G1 X96.619 Y65.64 E1.02056
G1 X99.27 Y65.039 E1.15617
G1 X101.932 Y64.358 E1.29326
G1 X104.035 Y63.762 E1.40231
G1 X104.675 Y63.573 E1.4356
G1 X105.181 Y63.467 E1.46139
G1 X105.402 Y63.441 E1.4725
G1 X105.921 Y63.394 E1.4985
G1 X106.645 Y63.337 E1.53473
G1 X107.356 Y63.291 E1.57027
G1 X107.987 Y63.312 E1.60177
G1 X108.279 Y63.351 E1.61647
G1 X110.98 Y63.675 E1.75219
G1 X113.725 Y63.927 E1.88971
G1 X116.471 Y64.101 E2.02699
G1 X118.568 Y64.18 E2.13168
G1 X119.311 Y64.202 E2.16876
G1 X119.837 Y64.262 E2.19518
G1 X120.014 Y64.298 E2.20419
G1 X120.495 Y64.408 E2.22881
G1 X121.212 Y64.578 E2.26557
G1 X121.929 Y64.762 E2.3025
G1 X122.517 Y64.977 E2.33373
G1 X122.84 Y65.131 E2.35159
G1 X125.381 Y66.303 E2.49119
G1 X127.879 Y67.372 E2.62675
G1 X130.464 Y68.395 E2.76545
G1 X132.292 Y69.064 E2.86256
G1 X132.993 Y69.315 E2.89971
G1 X133.457 Y69.524 E2.9251
G1 X133.645 Y69.629 E2.93584
G1 X134.12 Y69.913 E2.96345
G1 X134.709 Y70.275 E2.99794
G1 X135.315 Y70.657 E3.03368
G1 X135.82 Y71.051 E3.06564
G1 X135.989 Y71.213 E3.07732
G1 X138.021 Y73.098 E3.2156
G1 X140.085 Y74.907 E3.35252
G1 X142.198 Y76.657 E3.4894
G1 X143.906 Y78 E3.5978
G1 X144.436 Y78.408 E3.63117
G1 X144.793 Y78.729 E3.65512
G1 X144.963 Y78.91 E3.66751
G1 X145.311 Y79.309 E3.69393
G1 X145.793 Y79.874 E3.73098
G1 X146.242 Y80.416 E3.76609
G1 X146.592 Y80.934 E3.79728
G1 X146.73 Y81.188 E3.8117
G1 X148.092 Y83.63 E3.9512
G1 X149.487 Y85.97 E4.08712
G1 X150.955 Y88.283 E4.22379
G1 X152.13 Y90.034 E4.329
G1 X152.51 Y90.588 E4.36251
G1 X152.788 Y91.082 E4.39079
G1 X152.853 Y91.227 E4.39872
G1 X153.056 Y91.698 E4.42431
G1 X153.35 Y92.408 E4.46265
G1 X153.608 Y93.059 E4.49758
G1 X153.779 Y93.652 E4.52837
G1 X153.822 Y93.883 E4.5401
G1 X154.36 Y96.619 E4.67921
G1 X154.961 Y99.27 E4.81482
G1 X155.642 Y101.932 E4.95191
G1 X156.228 Y104.001 E5.05919
G1 X156.427 Y104.675 E5.09425
G1 X156.533 Y105.181 E5.12005
G1 X156.558 Y105.396 E5.13084
G1 X156.605 Y105.903 E5.15625
G1 X156.661 Y106.618 E5.19203
G1 X156.709 Y107.353 E5.22878
G1 X156.688 Y107.984 E5.26027
G1 X156.649 Y108.277 E5.27502
G1 X156.325 Y110.98 E5.41084
G1 X156.073 Y113.725 E5.54836
G1 X155.899 Y116.471 E5.68564
G1 X155.819 Y118.594 E5.79163
G1 X155.798 Y119.311 E5.82742
G1 X155.738 Y119.837 E5.85383
G1 X155.702 Y120.014 E5.86284
G1 X155.592 Y120.495 E5.88746
G1 X155.421 Y121.213 E5.92428
G1 X155.236 Y121.933 E5.96137
G1 X155.023 Y122.52 E5.99252
G1 X154.849 Y122.883 E6.0126
G1 X153.703 Y125.364 E6.14895
G1 X152.628 Y127.878 E6.28536
G1 X151.623 Y130.421 E6.42178
G1 X150.935 Y132.295 E6.52137
G1 X150.685 Y132.993 E6.55836
G1 X150.476 Y133.457 E6.58375
G1 X150.371 Y133.645 E6.59449
G1 X150.089 Y134.116 E6.62188
G1 X149.728 Y134.706 E6.65639
G1 X149.339 Y135.32 E6.69265
G1 X148.96 Y135.807 E6.72344
G1 X148.765 Y136.013 E6.73759
G1 X146.908 Y138.014 E6.87379
G1 X145.092 Y140.086 E7.01124
G1 X143.343 Y142.198 E7.14805
G1 X142 Y143.906 E7.25645
G1 X141.602 Y144.424 E7.28904
G1 X141.283 Y144.782 E7.31297
G1 X141.089 Y144.963 E7.3262
G1 X140.709 Y145.295 E7.35138
G1 X140.156 Y145.768 E7.38768
G1 X139.587 Y146.24 E7.42457
G1 X139.071 Y146.589 E7.45564
G1 X138.812 Y146.73 E7.47036
G1 X136.37 Y148.092 E7.60986
G1 X134.038 Y149.482 E7.7453
G1 X131.717 Y150.955 E7.88245
G1 X129.951 Y152.14 E7.98855
G1 X129.419 Y152.505 E8.02074
G1 X128.983 Y152.756 E8.04584
G1 X128.772 Y152.854 E8.05744
G1 X128.252 Y153.077 E8.08567
G1 X127.595 Y153.348 E8.12113
G1 X126.96 Y153.601 E8.15523
G1 X126.691 Y153.694 E8.16943
G1 X126.327 Y153.784 E8.18814
G1 X126.076 Y153.83 E8.20087
G1 X123.381 Y154.36 E8.3379
G1 X120.706 Y154.966 E8.47473
G1 X118.103 Y155.632 E8.60878
G1 X115.966 Y156.238 E8.7196
G1 X115.313 Y156.43 E8.75356
G1 X114.784 Y156.538 E8.7805
G1 X114.598 Y156.559 E8.78983
G1 X114.079 Y156.606 E8.81583
G1 X113.354 Y156.663 E8.85211
G1 X112.64 Y156.709 E8.88781
G1 X112.007 Y156.687 E8.91941
G1 X111.75 Y156.652 E8.93235
G1 X109.019 Y156.325 E9.06957
G1 X106.275 Y156.073 E9.20705
G1 X103.529 Y155.899 E9.34432
G1 X101.432 Y155.82 E9.44902
G1 X100.689 Y155.798 E9.4861
G1 X100.163 Y155.738 E9.51251
G1 X99.986 Y155.702 E9.52152
G1 X99.505 Y155.592 E9.54614
G1 X98.788 Y155.422 E9.5829
G1 X98.071 Y155.238 E9.61983
G1 X97.483 Y155.023 E9.65107
G1 X97.16 Y154.869 E9.66892
G1 X94.619 Y153.697 E9.80853
G1 X92.121 Y152.628 E9.94409
G1 X89.536 Y151.605 E10.08278
G1 X87.708 Y150.936 E10.1799
G1 X87.007 Y150.685 E10.21705
G1 X86.543 Y150.476 E10.24243
G1 X86.355 Y150.371 E10.25318
G1 X85.881 Y150.087 E10.28075
G1 X85.28 Y149.718 E10.31593
G1 X84.684 Y149.342 E10.35109
G1 X84.18 Y148.949 E10.38297
G1 X84.011 Y148.787 E10.39465
G1 X81.979 Y146.902 E10.53293
G1 X79.914 Y145.092 E10.66993
G1 X77.802 Y143.343 E10.80674
G1 X76.094 Y142 E10.91514
G1 X75.574 Y141.601 E10.94784
G1 X75.217 Y141.282 E10.97172
G1 X75.036 Y141.088 E10.98496
G1 X74.689 Y140.691 E11.01126
G1 X74.209 Y140.129 E11.04814
G1 X73.76 Y139.588 E11.08321
G1 X73.406 Y139.063 E11.1148
G1 X73.27 Y138.812 E11.12905
G1 X71.908 Y136.37 E11.26855
G1 X70.513 Y134.03 E11.40446
G1 X69.045 Y131.717 E11.54114
G1 X67.86 Y129.951 E11.64724
G1 X67.489 Y129.409 E11.68001
G1 X67.224 Y128.944 E11.70671
G1 X67.146 Y128.772 E11.71613
G1 X66.924 Y128.253 E11.74429
G1 X66.634 Y127.551 E11.78219
G1 X66.39 Y126.935 E11.81524
G1 X66.217 Y126.331 E11.84659
G1 X66.178 Y126.117 E11.85744
G1 X65.64 Y123.38 E11.9966
G1 X65.034 Y120.706 E12.13339
G1 X64.368 Y118.103 E12.26744
G1 X63.762 Y115.966 E12.37826
G1 X63.57 Y115.311 E12.41231
G1 X63.462 Y114.787 E12.439
G1 X63.441 Y114.598 E12.44849
G1 X63.394 Y114.079 E12.47449
G1 X63.337 Y113.355 E12.51072
G1 X63.291 Y112.645 E12.54622
G1 X63.312 Y112.016 E12.57762
G1 X63.351 Y111.723 E12.59236
G1 X63.675 Y109.02 E12.72818
G1 X63.927 Y106.275 E12.86571
G1 X64.101 Y103.529 E13.00298
G1 X64.181 Y101.406 E13.10897
G1 X64.202 Y100.689 E13.14476
G1 X64.262 Y100.163 E13.17117
G1 X64.297 Y99.99 E13.17998
G1 X64.413 Y99.481 E13.20602
G1 X64.578 Y98.789 E13.24151
G1 X64.762 Y98.071 E13.27849
G1 X64.977 Y97.482 E13.30977
G1 X65.131 Y97.159 E13.32763
G1 X66.304 Y94.618 E13.46725
G1 X67.372 Y92.121 E13.60275
G1 X68.395 Y89.536 E13.74144
G1 X69.063 Y87.708 E13.83854
G1 X69.309 Y87.016 E13.87518
G1 X69.531 Y86.528 E13.90193
G1 X69.627 Y86.36 E13.91158
G1 X69.914 Y85.878 E13.93957
G1 X70.277 Y85.286 E13.97422
G1 X70.667 Y84.67 E14.01059
G1 X71.057 Y84.171 E14.04219
G1 X71.252 Y83.966 E14.0563
G1 X73.138 Y81.933 E14.19465
G1 X74.942 Y79.874 E14.33123
G1 X76.709 Y77.738 E14.46953
G1 X77.983 Y76.116 E14.57243
G1 X78.414 Y75.556 E14.60768
G1 X78.78 Y75.157 E14.6347
G1 F1500 E8.1347
;MESH:engrj.STL
G0 F9000 X102.625 Y105.711
G0 X100.862 Y105.085
G0 X100.364 Y110.054
G0 X100.519 Y111.726
G0 X100.962 Y113.345
G0 X101.681 Y114.864
G0 X102.652 Y116.236
G0 X103.847 Y117.417
G0 X105.415 Y118.461
G0 X106.502 Y118.956
G0 X109.922 Y120.197
;TYPE:WALL-INNER
G1 F1500 E14.6347
G1 F1800 X110.078 Y120.197 E14.64248
G1 X111.697 Y120.057 E14.72355
G1 X111.852 Y120.027 E14.73143
G1 X113.409 Y119.61 E14.81185
G1 X113.557 Y119.558 E14.81967
G1 X115.028 Y118.871 E14.90067
G1 X115.165 Y118.794 E14.90851
G1 X116.494 Y117.863 E14.98947
G1 X116.615 Y117.761 E14.99736
G1 X117.761 Y116.615 E15.07822
G1 X117.863 Y116.494 E15.08611
G1 X118.805 Y115.148 E15.16808
G1 X118.971 Y114.818 E15.18651
G1 X119.558 Y113.556 E15.25595
G1 X119.609 Y113.409 E15.26371
G1 X119.612 Y113.395 E15.26442
G1 X120.027 Y111.852 E15.34414
G1 X120.057 Y111.697 E15.35201
G1 X120.197 Y110.078 E15.43309
G1 X120.197 Y109.922 E15.44087
G1 X120.057 Y108.303 E15.52195
G1 X120.027 Y108.148 E15.52982
G1 X119.61 Y106.591 E15.61024
G1 X119.558 Y106.443 E15.61806
G1 X118.871 Y104.972 E15.69906
G1 X118.794 Y104.835 E15.7069
G1 X117.863 Y103.506 E15.78786
G1 X117.761 Y103.385 E15.79575
G1 X116.615 Y102.239 E15.87661
G1 X116.494 Y102.137 E15.8845
G1 X115.148 Y101.195 E15.96647
G1 X114.831 Y101.034 E15.98421
G1 X113.556 Y100.442 E16.05434
G1 X113.409 Y100.391 E16.0621
G1 X113.395 Y100.388 E16.06282
G1 X111.852 Y99.973 E16.14253
G1 X111.697 Y99.943 E16.15041
G1 X110.078 Y99.803 E16.23148
G1 X109.922 Y99.803 E16.23927
G1 X108.303 Y99.943 E16.32034
G1 X108.148 Y99.973 E16.32822
G1 X106.591 Y100.39 E16.40863
G1 X106.443 Y100.442 E16.41646
G1 X104.972 Y101.129 E16.49746
G1 X104.835 Y101.206 E16.5053
G1 X103.506 Y102.137 E16.58625
G1 X103.385 Y102.239 E16.59415
G1 X102.239 Y103.385 E16.675
G1 X102.137 Y103.506 E16.6829
G1 X101.195 Y104.852 E16.76486
G1 X101.034 Y105.169 E16.7826
G1 X100.442 Y106.444 E16.85273
G1 X100.391 Y106.591 E16.8605
G1 X100.388 Y106.605 E16.86121
G1 X99.973 Y108.148 E16.94093
G1 X99.943 Y108.303 E16.9488
G1 X99.803 Y109.922 E17.02988
G1 X99.803 Y110.078 E17.03766
G1 X99.943 Y111.697 E17.11873
G1 X99.973 Y111.852 E17.12661
G1 X100.39 Y113.409 E17.20703
G1 X100.442 Y113.557 E17.21485
G1 X101.129 Y115.028 E17.29585
G1 X101.206 Y115.165 E17.30369
G1 X102.137 Y116.494 E17.38464
G1 X102.239 Y116.615 E17.39254
G1 X103.385 Y117.761 E17.4734
G1 X103.506 Y117.863 E17.48129
G1 X104.852 Y118.805 E17.56326
G1 X105.169 Y118.966 E17.58099
G1 X106.444 Y119.558 E17.65113
G1 X106.591 Y119.609 E17.65889
G1 X106.605 Y119.612 E17.6596
G1 X108.148 Y120.027 E17.73932
G1 X108.303 Y120.057 E17.7472
G1 X109.922 Y120.197 E17.82827
G0 F9000 X109.939 Y119.797
G1 F1800 X110.061 Y119.797 E17.83436
G1 X111.642 Y119.66 E17.91353
G1 X111.763 Y119.637 E17.91967
G1 X113.291 Y119.227 E17.9986
G1 X113.406 Y119.187 E18.00468
G1 X114.845 Y118.515 E18.08391
G1 X114.951 Y118.455 E18.08999
G1 X116.25 Y117.545 E18.16912
G1 X116.344 Y117.466 E18.17524
G1 X117.466 Y116.344 E18.2544
G1 X117.545 Y116.25 E18.26053
G1 X118.461 Y114.942 E18.3402
G1 X118.611 Y114.644 E18.35684
G1 X119.187 Y113.405 E18.42501
G1 X119.227 Y113.291 E18.43104
G1 X119.637 Y111.763 E18.50997
G1 X119.66 Y111.642 E18.51611
G1 X119.797 Y110.061 E18.59528
G1 X119.797 Y109.939 E18.60137
G1 X119.66 Y108.358 E18.68054
G1 X119.637 Y108.237 E18.68669
G1 X119.227 Y106.709 E18.76561
G1 X119.187 Y106.594 E18.77169
G1 X118.515 Y105.155 E18.85092
G1 X118.455 Y105.049 E18.857
G1 X117.545 Y103.75 E18.93613
G1 X117.466 Y103.656 E18.94225
G1 X116.344 Y102.534 E19.02142
G1 X116.25 Y102.455 E19.02754
G1 X114.942 Y101.539 E19.10721
G1 X114.656 Y101.394 E19.12321
G1 X113.405 Y100.813 E19.19202
G1 X113.291 Y100.773 E19.19805
G1 X111.763 Y100.363 E19.27698
G1 X111.642 Y100.34 E19.28312
G1 X110.061 Y100.203 E19.3623
G1 X109.939 Y100.203 E19.36838
G1 X108.358 Y100.34 E19.44755
G1 X108.237 Y100.363 E19.4537
G1 X106.709 Y100.773 E19.53263
G1 X106.594 Y100.813 E19.5387
G1 X105.155 Y101.485 E19.61794
G1 X105.049 Y101.545 E19.62401
G1 X103.75 Y102.455 E19.70314
G1 X103.656 Y102.534 E19.70927
G1 X102.534 Y103.656 E19.78843
G1 X102.455 Y103.75 E19.79456
G1 X101.539 Y105.058 E19.87422
G1 X101.394 Y105.344 E19.89022
G1 X100.813 Y106.595 E19.95904
G1 X100.773 Y106.709 E19.96506
G1 X100.363 Y108.237 E20.04399
G1 X100.34 Y108.358 E20.05014
G1 X100.203 Y109.939 E20.12931
G1 X100.203 Y110.061 E20.1354
G1 X100.34 Y111.642 E20.21457
G1 X100.363 Y111.763 E20.22071
G1 X100.773 Y113.291 E20.29964
G1 X100.813 Y113.406 E20.30572
G1 X101.485 Y114.845 E20.38495
G1 X101.545 Y114.951 E20.39103
G1 X102.455 Y116.25 E20.47015
G1 X102.534 Y116.344 E20.47628
G1 X103.656 Y117.466 E20.55544
G1 X103.75 Y117.545 E20.56157
G1 X105.058 Y118.461 E20.64124
G1 X105.344 Y118.606 E20.65723
G1 X106.595 Y119.187 E20.72605
G1 X106.709 Y119.227 E20.73208
G1 X108.237 Y119.637 E20.81101
G1 X108.358 Y119.66 E20.81715
G1 X109.939 Y119.797 E20.89632
G0 F9000 X109.956 Y119.397
;TYPE:WALL-OUTER
G1 F1800 X110.044 Y119.397 E20.90071
G1 X111.588 Y119.263 E20.97803
G1 X111.674 Y119.247 E20.9824
G1 X113.172 Y118.845 E21.05978
G1 X113.254 Y118.816 E21.06412
G1 X114.661 Y118.16 E21.14157
G1 X114.736 Y118.117 E21.14588
G1 X116.007 Y117.227 E21.22329
G1 X116.074 Y117.171 E21.22765
G1 X117.171 Y116.074 E21.30505
G1 X117.227 Y116.007 E21.3094
G1 X118.117 Y114.736 E21.38681
G1 X118.251 Y114.47 E21.40167
G1 X118.816 Y113.254 E21.46857
G1 X118.845 Y113.172 E21.47291
G1 X119.247 Y111.674 E21.55029
G1 X119.263 Y111.588 E21.55465
G1 X119.397 Y110.044 E21.63197
G1 X119.397 Y109.956 E21.63636
G1 X119.263 Y108.412 E21.71368
G1 X119.247 Y108.326 E21.71805
G1 X118.845 Y106.828 E21.79543
G1 X118.816 Y106.746 E21.79977
G1 X118.16 Y105.339 E21.87722
G1 X118.117 Y105.264 E21.88153
G1 X117.227 Y103.993 E21.95894
G1 X117.171 Y103.926 E21.9633
G1 X116.074 Y102.829 E22.0407
G1 X116.007 Y102.773 E22.04505
G1 X114.736 Y101.883 E22.12246
G1 X114.481 Y101.754 E22.13672
G1 X113.254 Y101.184 E22.20422
G1 X113.172 Y101.155 E22.20856
G1 X111.674 Y100.753 E22.28594
G1 X111.588 Y100.737 E22.2903
G1 X110.044 Y100.603 E22.36762
G1 X109.956 Y100.603 E22.37201
G1 X108.412 Y100.737 E22.44933
G1 X108.326 Y100.753 E22.4537
G1 X106.828 Y101.155 E22.53108
G1 X106.746 Y101.184 E22.53542
G1 X105.339 Y101.84 E22.61287
G1 X105.264 Y101.883 E22.61718
G1 X103.993 Y102.773 E22.69459
G1 X103.926 Y102.829 E22.69895
G1 X102.829 Y103.926 E22.77635
G1 X102.773 Y103.993 E22.7807
G1 X101.883 Y105.264 E22.85811
G1 X101.754 Y105.519 E22.87237
G1 X101.184 Y106.746 E22.93987
G1 X101.155 Y106.828 E22.94421
G1 X100.753 Y108.326 E23.02159
G1 X100.737 Y108.412 E23.02595
G1 X100.603 Y109.956 E23.10327
G1 X100.603 Y110.044 E23.10766
G1 X100.737 Y111.588 E23.18498
G1 X100.753 Y111.674 E23.18935
G1 X101.155 Y113.172 E23.26673
G1 X101.184 Y113.254 E23.27107
G1 X101.84 Y114.661 E23.34852
G1 X101.883 Y114.736 E23.35283
G1 X102.773 Y116.007 E23.43024
G1 X102.829 Y116.074 E23.4346
G1 X103.926 Y117.171 E23.512
G1 X103.993 Y117.227 E23.51635
G1 X105.264 Y118.117 E23.59376
G1 X105.519 Y118.246 E23.60802
G1 X106.746 Y118.816 E23.67552
G1 X106.828 Y118.845 E23.67986
G1 X108.326 Y119.247 E23.75724
G1 X108.412 Y119.263 E23.7616
G1 X109.956 Y119.397 E23.83892
G0 F9000 X110.044 Y119.397
G0 X110.155 Y119.388
G0 X110.192 Y119.826
G1 F1500 E17.33892
G0 F9000 X110.087 Y120.388
G0 X110.007 Y118.533
G0 X109.862 Y150.361
G0 X111.651 Y149.801
G0 X112.927 Y152.484
;TYPE:WALL-INNER
G1 F1500 E23.83892
G1 F1800 X112.265 Y151.531 E23.89681
G1 X111.457 Y149.882 E23.98843
G1 X110.898 Y148.095 E24.08184
G1 X110.56 Y145.917 E24.1918
G1 X110.438 Y145.522 E24.21243
G1 X110.256 Y145.148 E24.23318
G1 X110.012 Y144.807 E24.2541
G1 X109.722 Y144.512 E24.27474
G1 X109.396 Y144.27 E24.29499
G1 X109.018 Y144.074 E24.31623
G1 X108.617 Y143.947 E24.33722
G1 X108.224 Y143.886 E24.35706
G1 X106.419 Y143.746 E24.44738
G1 X106.041 Y143.747 E24.46624
G1 X105.633 Y143.814 E24.48687
G1 X105.244 Y143.943 E24.50732
G1 X104.87 Y144.137 E24.52834
G1 X104.538 Y144.386 E24.54904
G1 X104.249 Y144.684 E24.56975
G1 X104.013 Y145.019 E24.5902
G1 X103.833 Y145.39 E24.61077
G1 X103.157 Y147.5 E24.72131
G1 X102.333 Y149.154 E24.8135
G1 X101.271 Y150.669 E24.9058
G1 X100.47 Y151.505 E24.96357
G1 X99.656 Y151.311 E25.00531
G1 X99.322 Y150.201 E25.06314
G1 X99.061 Y148.372 E25.15532
G1 X99.081 Y146.518 E25.24782
G1 X99.433 Y144.33 E25.35838
G1 X99.442 Y143.914 E25.37914
G1 X99.38 Y143.503 E25.39988
G1 X99.257 Y143.112 E25.42033
G1 X99.074 Y142.742 E25.44092
G1 X98.83 Y142.399 E25.46192
G1 X98.535 Y142.103 E25.48277
G1 X98.199 Y141.862 E25.5034
G1 X98.172 Y141.849 E25.5049
