;FLAVOR:Marlin
;TIME:7937
;Filament used: 6.66368m
;Layer height: 0.2
;MINX:81.4
;MINY:66.377
;MINZ:0.3
;MAXX:138.6
;MAXY:153.621
;MAXZ:27.9
;Generated with Cura_SteamEngine 4.10.0
M140 S60
M105
M190 S60
M104 S220
M105
M109 S220
M82 ;absolute extrusion mode
G28 ;Home
G1 Z15.0 F2000 ;Move the platform
G92 E0
G92 E0
G1 F1500 E-6.5
;LAYER_COUNT:140
;LAYER:0
M107
M204 S1000
G0 F9000 X103.309 Y68.281 Z0.3
;TYPE:SKIRT
G1 F1500 E0
G1 F1800 X103.631 Y67.851 E0.0268
G1 X104.012 Y67.474 E0.05354
G1 X104.644 Y67.044 E0.09168
G1 X104.756 Y66.984 E0.09802
G1 X105.246 Y66.766 E0.12477
G1 X105.72 Y66.633 E0.14934
G1 X106.012 Y66.572 E0.16422
G1 X106.37 Y66.511 E0.18234
G1 X106.862 Y66.466 E0.20698
G1 X107.681 Y66.448 E0.24785
G1 X109.624 Y66.382 E0.34485
G1 X109.919 Y66.377 E0.35957
G1 X110.112 Y66.378 E0.3692
G1 X110.521 Y66.393 E0.38961
G1 X112.322 Y66.437 E0.47949
G1 X112.888 Y66.458 E0.50775
G1 X113.169 Y66.474 E0.52179
G1 X113.576 Y66.504 E0.54215
G1 X113.786 Y66.523 E0.55267
G1 X114.315 Y66.611 E0.57943
G1 X115.043 Y66.874 E0.61804
G1 X115.223 Y66.962 E0.62804
G1 X115.686 Y67.233 E0.65481
G1 X116.188 Y67.65 E0.68736
G1 X116.201 Y67.663 E0.68828
G1 X116.626 Y68.175 E0.72148
G1 X116.791 Y68.416 E0.73605
G1 X116.966 Y68.699 E0.75265
G1 X117.095 Y68.947 E0.7666
G1 X117.424 Y69.644 E0.80505
G1 X118.65 Y72.145 E0.94401
G1 X119.908 Y74.538 E1.07889
G1 X121.256 Y76.933 E1.216
G1 X122.66 Y79.271 E1.35206
G1 X124.124 Y81.561 E1.48766
G1 X125.647 Y83.801 E1.6228
G1 X127.266 Y86.041 E1.76069
G1 X128.907 Y88.182 E1.89527
G1 X130.629 Y90.304 E2.03161
G1 X132.416 Y92.382 E2.16834
G1 X134.224 Y94.367 E2.3023
G1 X136.54 Y96.758 E2.46837
G1 X137.389 Y97.605 E2.5282
G1 X137.739 Y98.011 E2.55494
G1 X137.979 Y98.381 E2.57695
G1 X138.091 Y98.579 E2.5883
G1 X138.305 Y99.026 E2.61302
G1 X138.324 Y99.074 E2.6156
G1 X138.484 Y99.586 E2.64236
G1 X138.576 Y100.327 E2.67961
G1 X138.599 Y101.498 E2.73804
G1 X138.6 Y118.819 E3.60219
G1 X138.59 Y119.559 E3.63911
G1 X138.565 Y119.935 E3.65791
G1 X138.466 Y120.462 E3.68467
G1 X138.378 Y120.744 E3.6994
G1 X138.31 Y120.935 E3.70952
G1 X138.029 Y121.542 E3.74289
G1 X137.959 Y121.662 E3.74982
G1 X137.655 Y122.104 E3.77659
G1 X137.374 Y122.414 E3.79746
G1 X136.894 Y122.886 E3.83105
G1 X134.966 Y124.844 E3.96814
G1 X133.112 Y126.834 E4.10383
G1 X131.311 Y128.883 E4.23993
G1 X129.566 Y130.984 E4.37619
G1 X127.875 Y133.14 E4.51289
G1 X126.252 Y135.336 E4.64912
G1 X124.718 Y137.538 E4.78301
G1 X123.204 Y139.849 E4.92085
G1 X121.78 Y142.163 E5.0564
G1 X120.41 Y144.537 E5.19315
G1 X119.123 Y146.922 E5.32835
G1 X117.889 Y149.37 E5.46513
G1 X117.144 Y150.942 E5.55191
G1 X117.007 Y151.202 E5.56658
G1 X116.841 Y151.489 E5.58312
G1 X116.378 Y152.12 E5.62216
G1 X116.245 Y152.265 E5.63198
G1 X115.854 Y152.633 E5.65877
G1 X115.413 Y152.938 E5.68552
G1 X114.931 Y153.174 E5.71229
G1 X114.312 Y153.359 E5.74453
G1 X113.935 Y153.436 E5.76372
G1 X113.632 Y153.488 E5.77906
G1 X113.152 Y153.534 E5.80312
G1 X111.703 Y153.573 E5.87543
G1 X111.44 Y153.577 E5.88856
G1 X110.306 Y153.619 E5.94517
G1 X109.895 Y153.621 E5.96568
G1 X109.627 Y153.611 E5.97906
G1 X107.598 Y153.562 E6.08031
G1 X107.084 Y153.541 E6.10598
G1 X106.537 Y153.505 E6.13333
G1 X106.242 Y153.481 E6.14809
G1 X105.712 Y153.398 E6.17486
G1 X105.201 Y153.237 E6.20159
G1 X104.819 Y153.058 E6.22263
G1 X104.627 Y152.954 E6.23353
G1 X104.176 Y152.665 E6.26025
G1 X103.773 Y152.311 E6.28701
G1 X103.343 Y151.781 E6.32106
G1 X103.173 Y151.525 E6.33639
G1 X102.947 Y151.133 E6.35897
G1 X102.857 Y150.951 E6.3691
G1 X101.803 Y148.744 E6.49112
G1 X100.568 Y146.338 E6.62604
G1 X99.254 Y143.943 E6.76233
G1 X97.875 Y141.592 E6.89831
G1 X96.425 Y139.271 E7.03485
G1 X94.919 Y137.006 E7.17055
G1 X93.344 Y134.78 E7.30659
G1 X91.704 Y132.593 E7.44297
G1 X90.006 Y130.457 E7.5791
G1 X88.267 Y128.392 E7.71379
G1 X86.439 Y126.344 E7.85075
G1 X84.561 Y124.354 E7.98726
G1 X83.365 Y123.144 E8.07214
G1 X82.636 Y122.419 E8.12343
G1 X82.285 Y122.014 E8.15017
G1 X82.069 Y121.686 E8.16976
G1 X81.922 Y121.435 E8.18428
G1 X81.686 Y120.954 E8.21101
G1 X81.524 Y120.442 E8.2378
G1 X81.464 Y120.121 E8.25409
G1 X81.447 Y120.001 E8.26014
G1 X81.413 Y119.604 E8.28002
G1 X81.401 Y119.162 E8.30208
G1 X81.4 Y101.101 E9.20314
G1 X81.411 Y100.41 E9.23762
G1 X81.46 Y99.876 E9.26437
G1 X81.629 Y99.235 E9.29745
G1 X81.719 Y98.988 E9.31056
G1 X81.939 Y98.499 E9.33731
G1 X82.328 Y97.925 E9.37191
G1 X82.4 Y97.838 E9.37754
G1 X82.6 Y97.615 E9.39249
G1 X82.961 Y97.247 E9.41821
G1 X84.279 Y95.938 E9.51088
G1 X86.175 Y93.947 E9.64805
G1 X87.997 Y91.92 E9.78402
G1 X89.753 Y89.853 E9.91933
G1 X91.458 Y87.728 E10.05526
G1 X93.11 Y85.543 E10.19192
G1 X94.696 Y83.318 E10.32824
G1 X96.197 Y81.079 E10.46272
G1 X97.675 Y78.736 E10.60093
G1 X99.04 Y76.429 E10.73466
G1 X100.372 Y74.029 E10.8716
G1 X101.624 Y71.608 E11.00758
G1 X102.319 Y70.152 E11.08807
G1 X102.912 Y68.945 E11.15517
G1 X103.108 Y68.596 E11.17514
G1 X103.309 Y68.281 E11.19378
G0 F9000 X103.646 Y68.496
G1 F1800 X103.951 Y68.092 E11.21903
G1 X104.316 Y67.742 E11.24426
G1 X104.833 Y67.396 E11.2753
G1 X104.945 Y67.336 E11.28164
G1 X105.408 Y67.133 E11.30686
G1 X105.802 Y67.025 E11.32724
G1 X106.094 Y66.964 E11.34212
G1 X106.434 Y66.905 E11.35934
G1 X106.871 Y66.866 E11.38123
G1 X107.701 Y66.848 E11.42265
G1 X109.631 Y66.781 E11.51899
G1 X109.926 Y66.776 E11.53371
G1 X110.097 Y66.778 E11.54224
G1 X110.503 Y66.793 E11.56251
G1 X112.307 Y66.836 E11.65254
G1 X112.867 Y66.858 E11.6805
G1 X113.141 Y66.873 E11.69419
G1 X113.54 Y66.902 E11.71415
G1 X113.75 Y66.921 E11.72467
G1 X114.249 Y67.006 E11.74992
G1 X114.867 Y67.233 E11.78277
G1 X115.047 Y67.321 E11.79277
G1 X115.483 Y67.578 E11.81802
G1 X115.905 Y67.933 E11.84553
G1 X115.918 Y67.946 E11.84645
G1 X116.295 Y68.401 E11.87593
G1 X116.46 Y68.642 E11.8905
G1 X116.598 Y68.862 E11.90345
G1 X116.733 Y69.118 E11.91789
G1 X117.081 Y69.856 E11.9586
G1 X118.28 Y72.301 E12.09446
G1 X119.563 Y74.741 E12.23199
G1 X120.907 Y77.129 E12.3687
G1 X122.313 Y79.471 E12.50499
G1 X123.789 Y81.779 E12.64167
G1 X125.331 Y84.047 E12.77849
G1 X126.928 Y86.256 E12.91448
G1 X128.609 Y88.45 E13.05238
G1 X130.334 Y90.575 E13.18893
G1 X132.083 Y92.609 E13.32276
G1 X133.956 Y94.665 E13.46152
G1 X136.253 Y97.037 E13.62625
G1 X137.106 Y97.888 E13.68636
G1 X137.435 Y98.272 E13.71159
G1 X137.631 Y98.577 E13.72968
G1 X137.743 Y98.775 E13.74103
G1 X137.933 Y99.173 E13.76303
G1 X137.952 Y99.221 E13.76561
G1 X138.101 Y99.705 E13.79087
G1 X138.176 Y100.335 E13.82253
G1 X138.199 Y101.498 E13.88056
G1 X138.2 Y118.813 E14.74441
G1 X138.19 Y119.553 E14.78133
G1 X138.167 Y119.89 E14.79818
G1 X138.002 Y120.61 E14.83503
G1 X137.934 Y120.801 E14.84515
G1 X137.683 Y121.34 E14.87481
G1 X137.613 Y121.46 E14.88174
G1 X137.325 Y121.876 E14.90699
G1 X137.093 Y122.129 E14.92411
G1 X136.63 Y122.585 E14.95653
G1 X134.672 Y124.573 E15.09574
G1 X132.801 Y126.582 E15.23271
G1 X131.004 Y128.626 E15.36849
G1 X129.259 Y130.727 E15.50475
G1 X127.554 Y132.901 E15.64259
G1 X125.934 Y135.092 E15.77853
G1 X124.379 Y137.325 E15.91428
G1 X122.871 Y139.625 E16.0515
G1 X121.435 Y141.959 E16.18821
G1 X120.07 Y144.327 E16.32458
G1 X118.771 Y146.731 E16.4609
G1 X117.537 Y149.181 E16.59776
G1 X116.783 Y150.771 E16.68556
G1 X116.661 Y151.002 E16.69859
G1 X116.495 Y151.289 E16.71513
G1 X116.083 Y151.85 E16.74985
G1 X115.95 Y151.995 E16.75967
G1 X115.58 Y152.339 E16.78488
G1 X115.16 Y152.621 E16.81012
G1 X114.702 Y152.834 E16.83531
G1 X114.232 Y152.967 E16.85968
G1 X113.855 Y153.044 E16.87888
G1 X113.568 Y153.094 E16.89342
G1 X113.141 Y153.134 E16.91481
G1 X111.697 Y153.173 E16.98688
G1 X111.463 Y153.177 E16.99856
G1 X110.298 Y153.219 E17.05672
G1 X109.91 Y153.222 E17.07607
G1 X109.592 Y153.21 E17.09195
G1 X107.613 Y153.163 E17.19071
G1 X107.11 Y153.142 E17.21583
G1 X106.57 Y153.106 E17.24283
G1 X106.275 Y153.082 E17.25759
G1 X105.775 Y153.002 E17.28286
G1 X105.295 Y152.844 E17.30807
G1 X105.01 Y152.707 E17.32384
G1 X104.818 Y152.603 E17.33474
G1 X104.394 Y152.328 E17.35995
G1 X104.018 Y151.989 E17.38521
G1 X103.676 Y151.559 E17.41262
G1 X103.506 Y151.303 E17.42795
G1 X103.306 Y150.955 E17.44797
G1 X103.218 Y150.779 E17.45779
G1 X102.162 Y148.568 E17.58003
G1 X100.917 Y146.142 E17.71608
G1 X99.599 Y143.739 E17.85281
G1 X98.226 Y141.398 E17.98821
G1 X96.764 Y139.059 E18.12582
G1 X95.235 Y136.76 E18.26357
G1 X93.675 Y134.555 E18.39833
G1 X92.022 Y132.35 E18.53581
G1 X90.323 Y130.213 E18.67202
G1 X88.572 Y128.134 E18.80763
G1 X86.728 Y126.067 E18.94582
G1 X84.824 Y124.051 E19.08417
G1 X83.669 Y122.883 E19.16612
G1 X82.918 Y122.136 E19.21896
G1 X82.589 Y121.752 E19.24419
G1 X82.414 Y121.484 E19.26016
G1 X82.267 Y121.233 E19.27467
G1 X82.046 Y120.778 E19.29991
G1 X81.86 Y120.065 E19.33667
G1 X81.843 Y119.945 E19.34272
G1 X81.812 Y119.592 E19.3604
G1 X81.802 Y119.258 E19.37707
G1 X81.8 Y101.107 E20.28262
G1 X81.811 Y100.416 E20.3171
G1 X81.859 Y99.913 E20.34231
G1 X82.004 Y99.371 E20.3703
G1 X82.094 Y99.124 E20.38342
G1 X82.304 Y98.665 E20.4086
G1 X82.636 Y98.18 E20.43792
G1 X82.708 Y98.093 E20.44356
G1 X82.886 Y97.895 E20.45684
G1 X83.243 Y97.531 E20.48228
G1 X84.568 Y96.215 E20.57545
G1 X86.463 Y94.224 E20.71258
G1 X88.299 Y92.183 E20.84954
G1 X90.068 Y90.099 E20.98592
G1 X91.774 Y87.975 E21.12183
G1 X93.426 Y85.788 E21.25857
G1 X95.025 Y83.544 E21.39604
G1 X96.551 Y81.269 E21.53271
G1 X97.999 Y78.974 E21.66809
G1 X99.392 Y76.621 E21.80452
G1 X100.734 Y74.202 E21.94253
G1 X101.971 Y71.81 E22.07688
G1 X102.678 Y70.328 E22.1588
G1 X103.271 Y69.121 E22.22589
G1 X103.445 Y68.811 E22.24363
G1 X103.646 Y68.496 E22.26227
G1 F1500 E15.76227
G0 F9000 X105.739 Y69.905
G0 X106.458 Y70.385
;TYPE:SUPPORT
G1 F1500 E22.26227
G1 F1800 X106.54 Y70.41 E22.26655
G1 X106.967 Y70.255 E22.28921
G1 X108.261 Y70.264 E22.35377
G1 X108.315 Y70.251 E22.35654
G1 X108.652 Y70.285 E22.37344
G1 X109.97 Y70.166 E22.43946
G1 X111.384 Y70.276 E22.51022
G1 X111.757 Y70.25 E22.52887
G1 X111.903 Y70.267 E22.53621
G1 X112.645 Y70.243 E22.57324
G1 X112.752 Y70.274 E22.5788
G1 X113.417 Y70.296 E22.612
G1 X113.518 Y70.346 E22.61762
G1 X113.652 Y70.543 E22.62951
G1 X113.652 Y88.801 E23.5404
G1 X114.051 Y89.2 E23.56855
G1 X118.177 Y89.2 E23.7744
G1 X118.194 Y92.93 E23.96049
G1 X118.43 Y93.251 E23.98037
G1 X118.46 Y99.8 E24.3071
G1 X118.86 Y100.199 E24.33529
G1 X134.495 Y100.201 E25.11532
G1 X134.696 Y100.275 E25.12601
G1 X134.799 Y100.521 E25.13931
G1 X134.8 Y119.504 E26.08638
G1 X134.728 Y119.695 E26.09656
G1 X134.489 Y119.799 E26.10957
G1 X118.86 Y119.8 E26.8893
G1 X118.462 Y120.197 E26.91735
G1 X118.431 Y125.083 E27.16112
G1 X118.204 Y125.413 E27.1811
G1 X118.176 Y130.1 E27.41494
G1 X118.176 Y130.8 E27.44986
G1 X114.051 Y130.8 E27.65566
G1 X113.652 Y131.199 E27.68381
G1 X113.652 Y149.45 E28.59436
G1 X113.542 Y149.614 E28.60421
G1 X113.453 Y149.587 E28.60885
G1 X113.023 Y149.745 E28.6317
G1 X111.746 Y149.737 E28.69541
G1 X111.69 Y149.75 E28.69828
G1 X111.347 Y149.715 E28.71548
G1 X110.025 Y149.834 E28.78171
G1 X108.609 Y149.724 E28.85256
G1 X108.235 Y149.75 E28.87127
G1 X108.089 Y149.733 E28.8786
G1 X107.343 Y149.757 E28.91584
G1 X107.231 Y149.726 E28.92164
G1 X106.581 Y149.704 E28.95408
G1 X106.483 Y149.657 E28.9595
G1 X106.348 Y149.455 E28.97163
G1 X106.348 Y131.199 E29.88242
G1 X105.949 Y130.8 E29.91057
G1 X101.823 Y130.8 E30.11642
G1 X101.806 Y127.07 E30.30251
G1 X101.57 Y126.749 E30.32239
G1 X101.54 Y120.2 E30.64912
G1 X101.14 Y119.801 E30.67731
G1 X85.501 Y119.8 E31.45754
G1 X85.31 Y119.73 E31.46769
G1 X85.201 Y119.5 E31.48039
G1 X85.2 Y100.496 E32.4285
G1 X85.276 Y100.303 E32.43885
G1 X85.496 Y100.201 E32.45095
G1 X101.14 Y100.2 E33.23143
G1 X101.538 Y99.803 E33.25948
G1 X101.569 Y94.917 E33.50325
G1 X101.796 Y94.587 E33.52323
G1 X101.824 Y89.9 E33.75707
G1 X101.824 Y89.2 E33.79199
G1 X105.949 Y89.2 E33.99779
G1 X106.348 Y88.801 E34.02594
G1 X106.348 Y70.55 E34.93649
G1 X106.458 Y70.385 E34.94638
G1 F1500 E28.44638
G0 F9000 X105.484 Y70.417
G0 X105.483 Y88.1
G0 X107.833 Y88.1
G1 F1500 E34.94638
G1 F1800 X107.189 Y88.744 E34.99182
G1 X107.189 Y88.8 E34.99461
G1 X106.894 Y88.8 E35.00933
G1 X106.66 Y89.034 E35.02584
G1 X106.661 Y99.966 E35.57124
G1 X106.895 Y100.2 E35.58775
G1 X107.19 Y100.2 E35.60247
G1 X107.19 Y100.256 E35.60526
G1 X107.834 Y100.9 E35.6507
G1 X112.167 Y100.9 E35.86687
G1 X112.811 Y100.256 E35.91231
G1 X112.811 Y100.21 E35.91461
G1 X112.851 Y100.2 E35.91666
G1 X113.106 Y100.2 E35.92938
G1 X113.34 Y99.966 E35.94589
G1 X113.339 Y89.034 E36.49129
G1 X113.105 Y88.8 E36.5078
G1 X112.81 Y88.8 E36.52252
G1 X112.81 Y88.744 E36.52532
G1 X112.166 Y88.1 E36.57075
G1 X107.833 Y88.1 E36.78693
G1 F1500 E30.28693
G0 F9000 X105.495 Y88.347
G0 X97.916 Y107.704
G0 X98.066 Y106.849
G1 F1500 E36.78693
G1 F1800 X97.5 Y106.802 E36.81526
G1 X96.934 Y106.849 E36.8436
G1 X96.408 Y106.993 E36.87081
G1 X95.911 Y107.218 E36.89802
G1 X95.437 Y107.55 E36.9269
G1 X95.047 Y107.937 E36.95431
G1 X94.721 Y108.405 E36.98276
G1 X94.498 Y108.882 E37.00903
G1 X94.356 Y109.416 E37.0366
G1 X94.299 Y109.939 E37.06285
G1 X94.343 Y110.549 E37.09336
G1 X94.489 Y111.085 E37.12107
G1 X94.718 Y111.586 E37.14856
G1 X95.061 Y112.077 E37.17844
G1 X95.42 Y112.434 E37.2037
G1 X95.916 Y112.787 E37.23407
G1 X96.415 Y113.007 E37.26128
G1 X96.922 Y113.15 E37.28756
G1 X97.5 Y113.198 E37.31649
G1 X98.078 Y113.15 E37.34543
G1 X98.585 Y113.007 E37.37171
G1 X99.084 Y112.787 E37.39892
G1 X99.58 Y112.434 E37.42929
G1 X99.939 Y112.077 E37.45455
G1 X100.282 Y111.586 E37.48443
G1 X100.511 Y111.085 E37.51191
G1 X100.657 Y110.549 E37.53963
G1 X100.701 Y109.939 E37.57014
G1 X100.644 Y109.416 E37.59639
G1 X100.502 Y108.882 E37.62395
G1 X100.279 Y108.405 E37.65022
G1 X99.953 Y107.937 E37.67868
G1 X99.563 Y107.55 E37.70609
G1 X99.089 Y107.218 E37.73496
G1 X98.592 Y106.993 E37.76218
G1 X98.066 Y106.849 E37.78939
G1 F1500 E31.28939
G0 F9000 X97.916 Y107.704
G0 X100.689 Y120.654
G0 X107.833 Y119.1
G1 F1500 E37.78939
G1 F1800 X107.189 Y119.744 E37.83483
G1 X107.189 Y119.79 E37.83712
G1 X107.149 Y119.8 E37.83918
G1 X106.894 Y119.8 E37.8519
G1 X106.66 Y120.034 E37.86841
G1 X106.661 Y130.966 E38.41381
G1 X106.895 Y131.2 E38.43032
G1 X107.19 Y131.2 E38.44504
G1 X107.19 Y131.256 E38.44783
G1 X107.834 Y131.9 E38.49327
G1 X112.167 Y131.9 E38.70944
G1 X112.811 Y131.256 E38.75488
G1 X112.811 Y131.2 E38.75767
G1 X113.106 Y131.2 E38.77239
G1 X113.34 Y130.966 E38.7889
G1 X113.34 Y120.034 E39.3343
G1 X113.106 Y119.8 E39.35081
G1 X112.854 Y119.8 E39.36338
G1 X112.81 Y119.744 E39.36694
G1 X112.166 Y119.1 E39.41237
G1 X107.833 Y119.1 E39.62855
G1 F1500 E33.12855
G0 F9000 X100.689 Y120.654
G0 X121.343 Y107.971
G0 X120.911 Y107.218
G1 F1500 E39.62855
G1 F1800 X120.437 Y107.55 E39.65742
G1 X120.047 Y107.937 E39.68483
G1 X119.721 Y108.405 E39.71329
G1 X119.498 Y108.882 E39.73956
G1 X119.356 Y109.416 E39.76712
G1 X119.299 Y109.939 E39.79337
G1 X119.343 Y110.549 E39.82388
G1 X119.489 Y111.085 E39.8516
G1 X119.718 Y111.586 E39.87908
G1 X120.061 Y112.077 E39.90896
G1 X120.42 Y112.434 E39.93422
G1 X120.916 Y112.787 E39.96459
G1 X121.415 Y113.007 E39.9918
G1 X121.922 Y113.15 E40.01808
G1 X122.5 Y113.198 E40.04702
G1 X123.078 Y113.15 E40.07595
G1 X123.585 Y113.007 E40.10223
G1 X124.084 Y112.787 E40.12944
G1 X124.58 Y112.434 E40.15981
G1 X124.939 Y112.077 E40.18507
G1 X125.282 Y111.586 E40.21495
G1 X125.511 Y111.085 E40.24244
G1 X125.657 Y110.549 E40.27015
G1 X125.701 Y109.939 E40.30066
G1 X125.644 Y109.416 E40.32691
G1 X125.502 Y108.882 E40.35448
G1 X125.279 Y108.405 E40.38075
G1 X124.953 Y107.937 E40.4092
G1 X124.563 Y107.55 E40.43661
G1 X124.089 Y107.218 E40.46549
G1 X123.592 Y106.993 E40.4927
G1 X123.066 Y106.849 E40.51991
G1 X122.5 Y106.802 E40.54825
G1 X121.934 Y106.849 E40.57658
G1 X121.408 Y106.993 E40.60379
G1 X120.911 Y107.218 E40.63101
G0 F9000 X120.015 Y107.857
G1 F1800 X120.015 Y100.28 E41.00903
G0 F9000 X118.375 Y98.679
G1 F1800 X113.419 Y98.679 E41.25628
G0 F9000 X113.419 Y96.012
G1 F1800 X118.363 Y96.012 E41.50294
G0 F9000 X118.351 Y93.345
G1 F1800 X113.419 Y93.345 E41.749
G0 F9000 X113.419 Y90.678
G1 F1800 X118.104 Y90.678 E41.98273
G0 F9000 X117.348 Y89.28
G1 F1800 X117.348 Y130.72 E44.05018
