;FLAVOR:Marlin
;TIME:1762
;Filament used: 0.869758m
;Layer height: 0.2
;MINX:99.508
;MINY:94
;MINZ:0.3
;MAXX:120.492
;MAXY:126
;MAXZ:19.9
;Generated with Cura_SteamEngine 4.10.0
M140 S60
M105
M190 S60
M104 S220
M105
M109 S220
M82 ;absolute extrusion mode
G28 ;Home
G1 Z15.0 F2000 ;Move the platform
G92 E0
G92 E0
G1 F1500 E-6.5
;LAYER_COUNT:100
;LAYER:0
M107
M204 S1000
G0 F9000 X104.038 Y95.442 Z0.3
;TYPE:SKIRT
G1 F1500 E0
G1 F1800 X104.152 Y95.326 E0.00811
G1 X104.595 Y94.932 E0.03769
G1 X105.087 Y94.601 E0.06728
G1 X105.619 Y94.34 E0.09684
G1 X106.182 Y94.152 E0.12645
G1 X106.764 Y94.042 E0.156
G1 X107.141 Y94.013 E0.17487
G1 X107.384 Y94.005 E0.187
G1 X107.793 Y94 E0.2074
G1 X112.059 Y94 E0.42023
G1 X112.761 Y94.01 E0.45526
G1 X113.352 Y94.059 E0.48485
G1 X113.931 Y94.186 E0.51442
G1 X114.487 Y94.39 E0.54397
G1 X115.012 Y94.667 E0.57358
G1 X115.494 Y95.013 E0.60318
G1 X115.933 Y95.427 E0.63329
G1 X116.063 Y95.568 E0.64286
G1 X116.435 Y96.031 E0.67249
G1 X116.741 Y96.538 E0.70203
G1 X117.061 Y97.35 E0.74558
G1 X117.796 Y99.94 E0.87989
G1 X118.6 Y102.496 E1.01357
G1 X119.502 Y105.106 E1.15134
G1 X119.975 Y106.357 E1.21807
G1 X120.221 Y107.04 E1.25429
G1 X120.384 Y107.61 E1.28386
G1 X120.479 Y108.383 E1.32272
G1 X120.486 Y108.627 E1.3349
G1 X120.491 Y109.096 E1.3583
G1 X120.492 Y110.878 E1.4472
G1 X120.482 Y111.544 E1.48043
G1 X120.433 Y112.135 E1.51002
G1 X120.212 Y112.995 E1.55432
G1 X119.698 Y114.392 E1.62858
G1 X119.661 Y114.487 E1.63367
G1 X118.767 Y117.031 E1.7682
G1 X117.937 Y119.626 E1.90412
G1 X117.301 Y121.803 E2.01727
G1 X117.06 Y122.664 E2.06188
G1 X116.862 Y123.222 E2.09142
G1 X116.591 Y123.75 E2.12103
G1 X116.251 Y124.236 E2.15062
G1 X115.934 Y124.588 E2.17425
G1 X115.821 Y124.701 E2.18223
G1 X115.375 Y125.091 E2.21178
G1 X114.88 Y125.418 E2.24138
G1 X114.345 Y125.675 E2.27099
G1 X113.781 Y125.858 E2.30058
G1 X113.198 Y125.963 E2.33013
G1 X112.859 Y125.987 E2.34708
G1 X112.616 Y125.995 E2.35921
G1 X112.207 Y126 E2.37962
G1 X107.93 Y126 E2.593
G1 X107.228 Y125.99 E2.62803
G1 X106.637 Y125.941 E2.65761
G1 X106.058 Y125.814 E2.68719
G1 X105.502 Y125.61 E2.71673
G1 X104.977 Y125.333 E2.74635
G1 X104.495 Y124.987 E2.77595
G1 X104.045 Y124.561 E2.80687
G1 X103.926 Y124.431 E2.81566
G1 X103.556 Y123.968 E2.84523
G1 X103.252 Y123.459 E2.87481
G1 X102.938 Y122.659 E2.91768
G1 X102.202 Y120.058 E3.05254
G1 X101.395 Y117.493 E3.18669
G1 X100.504 Y114.915 E3.32278
G1 X100.043 Y113.691 E3.38803
G1 X99.78 Y112.962 E3.42669
G1 X99.617 Y112.392 E3.45627
G1 X99.521 Y111.617 E3.49523
G1 X99.514 Y111.373 E3.50741
G1 X99.509 Y110.904 E3.53081
G1 X99.508 Y109.122 E3.61971
G1 X99.518 Y108.453 E3.65309
G1 X99.567 Y107.862 E3.68268
G1 X99.695 Y107.283 E3.71226
G1 X99.79 Y106.996 E3.72735
G1 X100.294 Y105.63 E3.79999
G1 X100.342 Y105.505 E3.80667
G1 X101.233 Y102.969 E3.94077
G1 X102.063 Y100.374 E4.0767
G1 X102.699 Y98.197 E4.18985
G1 X102.939 Y97.34 E4.23425
G1 X103.137 Y96.781 E4.26384
G1 X103.408 Y96.254 E4.2934
G1 X103.748 Y95.768 E4.32299
G1 X104.038 Y95.442 E4.34476
G0 F9000 X104.323 Y95.722
G1 F1800 X104.437 Y95.606 E4.35287
G1 X104.861 Y95.232 E4.38108
G1 X105.333 Y94.921 E4.40928
G1 X105.845 Y94.68 E4.43751
G1 X106.385 Y94.514 E4.4657
G1 X107.155 Y94.412 E4.50445
G1 X107.389 Y94.405 E4.51613
G1 X107.798 Y94.4 E4.53653
G1 X112.053 Y94.4 E4.74882
G1 X112.755 Y94.41 E4.78384
G1 X113.318 Y94.458 E4.81203
G1 X113.869 Y94.585 E4.84024
G1 X114.397 Y94.789 E4.86848
G1 X114.89 Y95.064 E4.89665
G1 X115.34 Y95.407 E4.92488
G1 X115.639 Y95.699 E4.94573
G1 X115.769 Y95.84 E4.9553
G1 X116.122 Y96.281 E4.98348
G1 X116.409 Y96.768 E5.01168
G1 X116.676 Y97.459 E5.04864
G1 X117.406 Y100.032 E5.18207
G1 X118.237 Y102.674 E5.32025
G1 X119.11 Y105.198 E5.45349
G1 X119.598 Y106.493 E5.52253
G1 X119.844 Y107.176 E5.55875
G1 X119.998 Y107.72 E5.58696
G1 X120.079 Y108.397 E5.62097
G1 X120.086 Y108.632 E5.6327
G1 X120.091 Y109.097 E5.6559
G1 X120.092 Y110.872 E5.74446
G1 X120.082 Y111.538 E5.77769
G1 X120.033 Y112.101 E5.80588
G1 X119.837 Y112.857 E5.84485
G1 X119.325 Y114.248 E5.9188
G1 X119.291 Y114.337 E5.92355
G1 X118.381 Y116.924 E6.06037
G1 X117.555 Y119.506 E6.19562
G1 X116.917 Y121.691 E6.30918
G1 X116.675 Y122.556 E6.35399
G1 X116.484 Y123.088 E6.38219
G1 X116.221 Y123.588 E6.41038
G1 X115.889 Y124.046 E6.4386
G1 X115.651 Y124.305 E6.45615
G1 X115.538 Y124.418 E6.46412
G1 X115.111 Y124.789 E6.49234
G1 X114.636 Y125.096 E6.52056
G1 X114.123 Y125.332 E6.54873
G1 X113.581 Y125.494 E6.57695
G1 X112.845 Y125.588 E6.61397
G1 X112.611 Y125.595 E6.62565
G1 X112.202 Y125.6 E6.64605
G1 X107.936 Y125.6 E6.85889
G1 X107.234 Y125.59 E6.89391
G1 X106.671 Y125.542 E6.9221
G1 X106.12 Y125.415 E6.95031
G1 X105.592 Y125.211 E6.97855
G1 X105.099 Y124.936 E7.00672
G1 X104.649 Y124.593 E7.03494
G1 X104.34 Y124.291 E7.0565
G1 X104.221 Y124.161 E7.06529
G1 X103.87 Y123.718 E7.09349
G1 X103.585 Y123.23 E7.12169
G1 X103.323 Y122.55 E7.15804
G1 X102.582 Y119.934 E7.29369
G1 X101.769 Y117.348 E7.42893
G1 X100.886 Y114.791 E7.56389
G1 X100.419 Y113.555 E7.62981
G1 X100.156 Y112.826 E7.66848
G1 X100.003 Y112.282 E7.69667
G1 X99.921 Y111.603 E7.73079
G1 X99.914 Y111.368 E7.74252
G1 X99.909 Y110.903 E7.76572
G1 X99.908 Y109.128 E7.85428
G1 X99.918 Y108.459 E7.88766
G1 X99.967 Y107.896 E7.91585
G1 X100.165 Y107.134 E7.95513
G1 X100.668 Y105.772 E8.02757
G1 X100.709 Y105.665 E8.03328
G1 X101.619 Y103.076 E8.17019
G1 X102.445 Y100.494 E8.30544
G1 X103.083 Y98.309 E8.419
G1 X103.324 Y97.448 E8.46361
G1 X103.514 Y96.916 E8.49179
G1 X103.778 Y96.416 E8.52
G1 X104.11 Y95.958 E8.54822
G1 X104.323 Y95.722 E8.56409
G0 F9000 X104.608 Y96.003
G1 F1800 X104.722 Y95.887 E8.5722
G1 X105.126 Y95.533 E8.599
G1 X105.577 Y95.244 E8.62572
G1 X106.066 Y95.024 E8.65247
G1 X106.583 Y94.88 E8.67925
G1 X107.168 Y94.812 E8.70863
G1 X107.394 Y94.805 E8.71991
G1 X107.803 Y94.8 E8.74032
G1 X112.047 Y94.8 E8.95205
G1 X112.749 Y94.81 E8.98708
G1 X113.283 Y94.858 E9.01383
G1 X113.805 Y94.984 E9.04062
G1 X114.301 Y95.187 E9.06736
G1 X114.762 Y95.461 E9.09411
G1 X115.345 Y95.97 E9.13272
G1 X115.475 Y96.111 E9.14229
G1 X115.808 Y96.531 E9.16903
G1 X116.075 Y96.996 E9.19578
G1 X116.291 Y97.568 E9.22629
G1 X117.025 Y100.156 E9.36049
G1 X117.853 Y102.788 E9.49815
G1 X118.73 Y105.322 E9.63193
G1 X119.222 Y106.628 E9.70156
G1 X119.468 Y107.311 E9.73777
G1 X119.612 Y107.828 E9.76455
G1 X119.679 Y108.41 E9.79378
G1 X119.686 Y108.637 E9.80511
G1 X119.691 Y109.097 E9.82806
G1 X119.692 Y110.866 E9.91631
G1 X119.682 Y111.532 E9.94954
G1 X119.634 Y112.066 E9.97629
G1 X119.461 Y112.719 E10.01
G1 X118.952 Y114.104 E10.08361
G1 X118.905 Y114.226 E10.09013
G1 X118.009 Y116.775 E10.22493
G1 X117.173 Y119.387 E10.36176
G1 X116.533 Y121.579 E10.47568
G1 X116.29 Y122.448 E10.5207
G1 X116.107 Y122.952 E10.54745
G1 X115.851 Y123.423 E10.5742
G1 X115.369 Y124.023 E10.61259
G1 X115.256 Y124.136 E10.62057
G1 X114.849 Y124.485 E10.64731
G1 X114.395 Y124.771 E10.67408
G1 X113.904 Y124.986 E10.70083
G1 X113.386 Y125.126 E10.7276
G1 X112.832 Y125.188 E10.75541
G1 X112.606 Y125.195 E10.76669
G1 X112.197 Y125.2 E10.7871
G1 X107.942 Y125.2 E10.99938
G1 X107.24 Y125.19 E11.0344
G1 X106.706 Y125.142 E11.06115
G1 X106.184 Y125.016 E11.08794
G1 X105.688 Y124.813 E11.11468
G1 X105.227 Y124.539 E11.14144
G1 X104.636 Y124.021 E11.18064
G1 X104.517 Y123.891 E11.18944
G1 X104.185 Y123.469 E11.21623
G1 X103.92 Y123.003 E11.24297
G1 X103.708 Y122.441 E11.27294
G1 X102.963 Y119.811 E11.40931
G1 X102.153 Y117.234 E11.54408
G1 X101.266 Y114.667 E11.67958
G1 X100.796 Y113.42 E11.74606
G1 X100.533 Y112.691 E11.78473
G1 X100.389 Y112.174 E11.8115
G1 X100.321 Y111.59 E11.84084
G1 X100.314 Y111.363 E11.85217
G1 X100.309 Y110.903 E11.87512
G1 X100.308 Y109.134 E11.96337
G1 X100.318 Y108.465 E11.99675
G1 X100.366 Y107.931 E12.0235
G1 X100.541 Y107.273 E12.05747
G1 X101.094 Y105.777 E12.13704
G1 X101.991 Y103.225 E12.272
G1 X102.827 Y100.613 E12.40882
G1 X103.467 Y98.421 E12.52275
G1 X103.709 Y97.556 E12.56756
G1 X103.892 Y97.052 E12.59431
G1 X104.147 Y96.58 E12.62108
G1 X104.608 Y96.003 E12.65792
G0 F9000 X104.894 Y96.283
G1 F1800 X105.008 Y96.167 E12.66604
G1 X105.389 Y95.836 E12.69122
G1 X105.819 Y95.568 E12.71649
G1 X106.285 Y95.372 E12.74172
G1 X106.776 Y95.252 E12.76693
G1 X107.182 Y95.212 E12.78729
G1 X107.399 Y95.205 E12.79812
G1 X107.808 Y95.2 E12.81853
G1 X112.042 Y95.2 E13.02976
G1 X112.744 Y95.21 E13.06479
G1 X113.247 Y95.257 E13.08999
G1 X113.737 Y95.383 E13.11523
G1 X114.2 Y95.585 E13.14043
G1 X114.627 Y95.856 E13.16567
G1 X115.051 Y96.241 E13.19424
G1 X115.181 Y96.382 E13.20381
G1 X115.493 Y96.779 E13.229
G1 X115.739 Y97.221 E13.25423
G1 X115.906 Y97.678 E13.27851
G1 X116.641 Y100.27 E13.41292
G1 X117.469 Y102.902 E13.55058
G1 X118.346 Y105.438 E13.68445
G1 X118.846 Y106.764 E13.75515
G1 X119.092 Y107.447 E13.79137
G1 X119.225 Y107.934 E13.81656
G1 X119.279 Y108.424 E13.84115
G1 X119.286 Y108.642 E13.85203
G1 X119.291 Y109.097 E13.87473
G1 X119.292 Y110.86 E13.96269
G1 X119.282 Y111.526 E13.99592
G1 X119.234 Y112.029 E14.02113
G1 X119.086 Y112.582 E14.04969
G1 X118.579 Y113.96 E14.12294
G1 X118.53 Y114.086 E14.12969
G1 X117.626 Y116.657 E14.26566
G1 X116.791 Y119.268 E14.40242
G1 X116.149 Y121.467 E14.51671
G1 X115.904 Y122.34 E14.56194
G1 X115.73 Y122.814 E14.58713
G1 X115.483 Y123.256 E14.61239
G1 X115.086 Y123.74 E14.64363
G1 X114.973 Y123.853 E14.6516
G1 X114.588 Y124.181 E14.67683
G1 X114.157 Y124.444 E14.70202
G1 X113.689 Y124.637 E14.72728
G1 X113.197 Y124.753 E14.7525
G1 X112.818 Y124.788 E14.77149
G1 X112.601 Y124.795 E14.78232
G1 X112.192 Y124.8 E14.80272
G1 X107.947 Y124.8 E15.01451
G1 X107.245 Y124.79 E15.04953
G1 X106.742 Y124.743 E15.07474
G1 X106.252 Y124.617 E15.09998
G1 X105.789 Y124.415 E15.12518
G1 X105.362 Y124.144 E15.15041
G1 X104.931 Y123.751 E15.17951
G1 X104.812 Y123.621 E15.18831
G1 X104.501 Y123.222 E15.21354
G1 X104.257 Y122.779 E15.23878
G1 X104.093 Y122.332 E15.26253
G1 X103.356 Y119.729 E15.3975
G1 X102.519 Y117.066 E15.53677
G1 X101.647 Y114.543 E15.66994
G1 X101.172 Y113.284 E15.73708
G1 X100.909 Y112.555 E15.77574
G1 X100.775 Y112.067 E15.80099
G1 X100.721 Y111.576 E15.82563
G1 X100.714 Y111.358 E15.83652
G1 X100.709 Y110.903 E15.85922
G1 X100.708 Y109.14 E15.94717
G1 X100.718 Y108.471 E15.98055
G1 X100.766 Y107.968 E16.00576
G1 X100.916 Y107.411 E16.03454
G1 X101.416 Y106.056 E16.1066
G1 X101.466 Y105.925 E16.11359
G1 X102.374 Y103.343 E16.25014
G1 X103.209 Y100.732 E16.38691
G1 X103.851 Y98.533 E16.50119
G1 X104.094 Y97.664 E16.54621
G1 X104.269 Y97.189 E16.57147
G1 X104.516 Y96.748 E16.59668
G1 X104.894 Y96.283 E16.62658
G1 F1500 E10.12658
G0 F9000 X106.756 Y97.989
G0 X107.368 Y98.6
;TYPE:SUPPORT
G1 F1500 E16.62658
G1 F1800 X112.621 Y98.6 E16.88865
G1 X112.631 Y98.61 E16.88936
G1 X112.644 Y101.985 E17.05774
G1 X112.645 Y105.051 E17.2107
G1 X112.696 Y105.549 E17.23568
G1 X113.637 Y108.295 E17.3805
G1 X114.065 Y108.6 E17.40672
G1 X115.882 Y108.6 E17.49737
G1 X115.891 Y108.609 E17.498
G1 X115.892 Y111.4 E17.63725
G1 X114.073 Y111.4 E17.728
G1 X113.644 Y111.705 E17.75426
G1 X112.709 Y114.411 E17.89709
G1 X112.644 Y114.978 E17.92557
G1 X112.645 Y117.81 E18.06686
G1 X112.632 Y121.4 E18.24596
G1 X107.369 Y121.4 E18.50853
G1 X107.356 Y117.841 E18.68609
G1 X107.355 Y114.958 E18.82993
G1 X107.3 Y114.447 E18.85557
G1 X106.403 Y111.71 E18.99927
G1 X105.975 Y111.4 E19.02563
G1 X104.118 Y111.4 E19.11828
G1 X104.109 Y111.391 E19.11891
G1 X104.108 Y108.6 E19.25816
G1 X106.604 Y108.6 E19.38268
G1 X107.015 Y108.23 E19.41027
G1 X107.356 Y104.997 E19.57246
G1 X107.355 Y102.19 E19.7125
G1 X107.368 Y98.6 E19.89161
G1 F1500 E13.39161
G0 F9000 X106.502 Y98.598
G0 X106.249 Y107.25
G0 X107.942 Y107.428
G1 F1500 E19.89161
G1 F1800 X107.556 Y107.832 E19.91949
G1 X107.557 Y108.336 E19.94463
G1 X107.458 Y108.434 E19.95158
G1 X107.459 Y111.566 E20.10784
G1 X107.56 Y111.667 E20.11496
G1 X107.561 Y112.147 E20.13891
G1 X107.945 Y112.552 E20.16675
G1 X110.04 Y112.66 E20.27141
G1 X112.058 Y112.567 E20.3722
G1 X112.444 Y112.163 E20.40008
G1 X112.443 Y111.664 E20.42497
G1 X112.542 Y111.566 E20.43192
G1 X112.541 Y108.434 E20.58818
G1 X112.44 Y108.333 E20.5953
G1 X112.439 Y107.847 E20.61955
G1 X112.055 Y107.443 E20.64736
G1 X109.994 Y107.338 E20.75031
G1 X107.942 Y107.428 E20.85279
G0 F9000 X107.26 Y106.68
G1 F1800 X113 Y106.68 E21.13916
G0 F9000 X112.014 Y107.361
G1 F1800 X112.014 Y98.68 E21.57225
G0 F9000 X109.347 Y98.68
G1 F1800 X109.347 Y107.287 E22.00166
G0 F9000 X107.379 Y109.347
G1 F1800 X104.188 Y109.347 E22.16086
G0 F9000 X106.68 Y108.639
G1 F1800 X106.68 Y112.297 E22.34336
G0 F9000 X106.586 Y112.014
G1 F1800 X107.481 Y112.014 E22.38801
G0 F9000 X109.347 Y112.705
G1 F1800 X109.347 Y121.32 E22.81781
G0 F9000 X107.442 Y120.015
G1 F1800 X112.556 Y120.015 E23.07295
G0 F9000 X112.014 Y121.32
G1 F1800 X112.014 Y112.648 E23.5056
G0 F9000 X112.523 Y112.014
G1 F1800 X113.452 Y112.014 E23.55195
G0 F9000 X114.681 Y111.32
G1 F1800 X114.681 Y108.68 E23.68366
G0 F9000 X115.812 Y109.347
G1 F1800 X112.621 Y109.347 E23.84286
G1 F1500 E17.34286
G0 F9000 X114.353 Y107.743
G0 X116.238 Y107.739
G0 X116.752 Y108.253
G0 X116.753 Y111.757
G0 X113.557 Y114.604
G0 X112.597 Y114.681
G1 F1500 E23.84286
G1 F1800 X107.406 Y114.681 E24.10184
G0 F9000 X107.435 Y117.348
G1 F1800 X112.565 Y117.348 E24.35777
G1 F1500 E17.85777
G0 F9000 X113.509 Y117.347
G0 X116.753 Y111.757
G0 X116.752 Y108.253
G0 X113.509 Y104.012
G0 X112.565 Y104.013
G1 F1500 E24.35777
G1 F1800 X107.435 Y104.013 E24.61371
G0 F9000 X107.438 Y101.346
G1 F1800 X112.562 Y101.346 E24.86935
G1 F1500 E18.36935
;MESH:prb_01.STL
G0 F9000 X113.506 Y101.342
G0 X114.316 Y107.614
G0 X110.812 Y108.814
G0 X110.227 Y110.6
;TYPE:WALL-INNER
G1 F1500 E24.86935
G1 F1800 X110.028 Y110.6 E24.87928
G1 X109.774 Y110.6 E24.89195
G1 X109.773 Y109.599 E24.94189
G1 X109.773 Y109.4 E24.95182
G1 X109.972 Y109.4 E24.95824
G1 X110.226 Y109.4 E24.97091
G1 X110.227 Y110.401 E25.02085
G1 X110.227 Y110.6 E25.02728
G0 F9000 X110.627 Y111
G1 F1800 X110.428 Y111 E25.0372
G1 X109.374 Y111 E25.08979
G1 X109.373 Y109.199 E25.17964
G1 X109.373 Y109 E25.18957
G1 X109.572 Y109 E25.19599
G1 X110.626 Y109 E25.24858
G1 X110.627 Y110.801 E25.33843
G1 X110.627 Y111 E25.34485
G0 F9000 X111.027 Y111.4
;TYPE:WALL-OUTER
G1 F1800 X108.974 Y111.4 E25.44728
G1 X108.973 Y108.6 E25.58697
G1 X111.026 Y108.6 E25.68939
G1 X111.027 Y111.4 E25.82909
G0 F9000 X110.827 Y111.4
G0 X110.586 Y110.959
G0 X109.999 Y110.282
;TYPE:SKIN
G1 F1800 X109.999 Y109.999 E25.83473
G1 X109.999 Y109.716 E25.84037
G0 F9000 X109.947 Y109.664
G1 F1500 E19.34037
;MESH:NONMESH
G0 F300 X109.947 Y109.664 Z0.5
G0 F9000 X110.812 Y108.814
G0 X114.316 Y107.614
G0 X113.496 Y98.596
G0 X112.622 Y98.6
;TIME_ELAPSED:30.945033
;LAYER:1
M106 S127.5
;TYPE:SUPPORT
G1 F1500 E25.84037
G1 F1036.6 X112.014 Y98.6 E25.86059
G1 X112.014 Y107.442 E26.15468
G1 X109.995 Y107.338 E26.22192
G1 X109.347 Y107.366 E26.24349
G1 X109.347 Y98.6 E26.53505
G1 X107.368 Y98.6 E26.60087
G1 X107.355 Y102.186 E26.72014
G1 X107.356 Y104.997 E26.81364
G1 X107.075 Y107.662 E26.90277
G1 X107.274 Y107.454 E26.91234
G1 X109.347 Y107.366 E26.98135
G0 F9000 X112.014 Y107.442
G1 F1036.6 X112.724 Y107.479 E27.005
G1 X113.108 Y107.884 E27.02356
G1 X113.109 Y108.333 E27.03849
G1 X113.21 Y108.434 E27.04324
G1 X113.211 Y111.566 E27.14741
G1 X113.112 Y111.664 E27.15205
G1 X113.113 Y112.134 E27.16768
G1 X112.727 Y112.538 E27.18626
G1 X112.014 Y112.57 E27.21
G1 X112.014 Y121.4 E27.50369
G1 X109.347 Y121.4 E27.59239
G1 X109.347 Y112.625 E27.88425
G1 X107.276 Y112.519 E27.95322
G1 X106.892 Y112.115 E27.97176
G1 X106.891 Y111.667 E27.98666
G1 X106.79 Y111.566 E27.99141
G1 X106.789 Y108.434 E28.09558
G1 X106.795 Y108.428 E28.09587
G1 X106.68 Y108.531 E28.101
G1 X106.68 Y112.553 E28.23477
G1 X106.404 Y111.71 E28.26428
G1 X105.976 Y111.4 E28.28185
G1 X104.117 Y111.4 E28.34368
G1 X104.109 Y111.392 E28.34406
G1 X104.108 Y108.6 E28.43692
G1 X106.604 Y108.6 E28.51994
G1 X106.68 Y108.531 E28.52335
G1 F1500 E22.02335
G0 F9000 X106.207 Y107.746
G0 X106.508 Y98.242
G0 X107.011 Y97.739
G0 X112.978 Y97.739
G0 X113.491 Y98.252
