;FLAVOR:Marlin
;TIME:5094
;Filament used: 4.4864m
;Layer height: 0.2
;MINX:78.989
;MINY:78.989
;MINZ:0.3
;MAXX:141.011
;MAXY:141.011
;MAXZ:21.9
;Generated with Cura_SteamEngine 4.10.0
M140 S60
M105
M190 S60
M104 S210
M105
M109 S210
M82 ;absolute extrusion mode
G28 ;Home
G1 Z15.0 F2000 ;Move the platform
G92 E0
G92 E0
G1 F1500 E-6.5
;LAYER_COUNT:110
;LAYER:0
M107
M204 S1000
G0 F9000 X86.022 Y90.111 Z0.3
;TYPE:SKIRT
G1 F1500 E0
G1 F1800 X86.475 Y89.75 E0.0289
G1 X86.636 Y89.642 E0.03857
G1 X88.928 Y88.056 E0.17763
G1 X91.113 Y86.453 E0.31283
G1 X93.257 Y84.784 E0.44838
G1 X95.376 Y83.036 E0.58543
G1 X96.042 Y82.456 E0.62949
G1 X96.575 Y82.007 E0.66426
G1 X97.009 Y81.693 E0.69098
G1 X97.449 Y81.463 E0.71575
G1 X98.177 Y81.144 E0.7554
G1 X98.291 Y81.096 E0.76158
G1 X98.663 Y80.948 E0.78155
G1 X99.175 Y80.787 E0.80833
G1 X99.745 Y80.702 E0.83708
G1 X99.987 Y80.685 E0.84918
G1 X102.764 Y80.456 E0.9882
G1 X105.448 Y80.159 E1.12292
G1 X108.176 Y79.78 E1.26033
G1 X110.86 Y79.327 E1.39613
G1 X111.712 Y79.161 E1.43943
G1 X112.366 Y79.044 E1.47258
G1 X112.899 Y78.989 E1.49931
G1 X113.4 Y79.01 E1.52433
G1 X114.196 Y79.099 E1.56429
G1 X114.707 Y79.172 E1.59004
G1 X115.23 Y79.289 E1.61678
G1 X115.765 Y79.499 E1.64545
G1 X115.937 Y79.583 E1.655
G1 X118.442 Y80.769 E1.79328
G1 X120.945 Y81.867 E1.92964
G1 X123.465 Y82.891 E2.06534
G1 X126.023 Y83.846 E2.20157
G1 X126.904 Y84.149 E2.24805
G1 X127.53 Y84.376 E2.28127
G1 X128.019 Y84.596 E2.30802
G1 X128.433 Y84.858 E2.33246
G1 X129.15 Y85.386 E2.37689
G1 X129.492 Y85.656 E2.39863
G1 X129.887 Y86.019 E2.42539
G1 X130.247 Y86.471 E2.45422
G1 X130.354 Y86.63 E2.46378
G1 X131.944 Y88.928 E2.6032
G1 X133.547 Y91.113 E2.7384
G1 X135.216 Y93.257 E2.87395
G1 X136.948 Y95.356 E3.00972
G1 X137.544 Y96.042 E3.05505
G1 X137.993 Y96.575 E3.08982
G1 X138.307 Y97.009 E3.11655
G1 X138.537 Y97.449 E3.14132
G1 X138.903 Y98.288 E3.18699
G1 X139.045 Y98.644 E3.20611
G1 X139.106 Y98.809 E3.21488
G1 X139.245 Y99.327 E3.24164
G1 X139.3 Y99.758 E3.26332
G1 X139.315 Y99.987 E3.27477
G1 X139.544 Y102.764 E3.41378
G1 X139.841 Y105.448 E3.54851
G1 X140.22 Y108.176 E3.68591
G1 X140.673 Y110.86 E3.82171
G1 X140.839 Y111.712 E3.86502
G1 X140.956 Y112.366 E3.89816
G1 X141.011 Y112.899 E3.9249
G1 X140.99 Y113.4 E3.94991
G1 X140.901 Y114.196 E3.98987
G1 X140.828 Y114.707 E4.01563
G1 X140.711 Y115.23 E4.04236
G1 X140.501 Y115.765 E4.07104
G1 X140.417 Y115.937 E4.08059
G1 X139.231 Y118.442 E4.21886
G1 X138.133 Y120.945 E4.35522
G1 X137.109 Y123.465 E4.49093
G1 X136.154 Y126.023 E4.62715
G1 X135.851 Y126.904 E4.67363
G1 X135.624 Y127.53 E4.70686
G1 X135.404 Y128.019 E4.73361
G1 X135.142 Y128.434 E4.75809
G1 X134.683 Y129.059 E4.79678
G1 X134.343 Y129.492 E4.82425
G1 X133.98 Y129.887 E4.85101
G1 X133.529 Y130.247 E4.8798
G1 X133.37 Y130.354 E4.88936
G1 X131.072 Y131.944 E5.02878
G1 X128.912 Y133.529 E5.16244
G1 X126.721 Y135.234 E5.30095
G1 X124.624 Y136.964 E5.43657
G1 X123.958 Y137.544 E5.48063
G1 X123.425 Y137.993 E5.5154
G1 X122.991 Y138.307 E5.54213
G1 X122.551 Y138.537 E5.5669
G1 X121.712 Y138.903 E5.61257
G1 X121.351 Y139.047 E5.63196
G1 X120.914 Y139.189 E5.65488
G1 X120.241 Y139.3 E5.68891
G1 X119.979 Y139.318 E5.70201
G1 X117.235 Y139.544 E5.83937
G1 X114.552 Y139.841 E5.97405
G1 X111.824 Y140.22 E6.11146
G1 X109.147 Y140.671 E6.24689
G1 X108.289 Y140.839 E6.29051
G1 X107.635 Y140.956 E6.32366
G1 X107.102 Y141.011 E6.35039
G1 X106.601 Y140.99 E6.37541
G1 X105.804 Y140.901 E6.41542
G1 X105.285 Y140.826 E6.44158
G1 X104.762 Y140.709 E6.46832
G1 X104.226 Y140.497 E6.49707
G1 X104.063 Y140.417 E6.50613
G1 X101.558 Y139.231 E6.64441
G1 X99.055 Y138.133 E6.78077
G1 X96.535 Y137.109 E6.91648
G1 X93.977 Y136.154 E7.0527
G1 X93.096 Y135.851 E7.09918
G1 X92.47 Y135.624 E7.1324
G1 X91.981 Y135.404 E7.15915
G1 X91.566 Y135.142 E7.18364
G1 X90.941 Y134.683 E7.22232
G1 X90.508 Y134.343 E7.24979
G1 X90.113 Y133.98 E7.27655
G1 X89.753 Y133.529 E7.30534
G1 X89.646 Y133.37 E7.31491
G1 X88.056 Y131.072 E7.45432
G1 X86.469 Y128.909 E7.58816
G1 X84.766 Y126.721 E7.72649
G1 X83.036 Y124.624 E7.86212
G1 X82.456 Y123.958 E7.90618
G1 X82.007 Y123.425 E7.94095
G1 X81.693 Y122.991 E7.96767
G1 X81.463 Y122.551 E7.99244
G1 X81.144 Y121.823 E8.0321
G1 X81.095 Y121.706 E8.03843
G1 X80.947 Y121.333 E8.05845
G1 X80.787 Y120.821 E8.08521
G1 X80.702 Y120.255 E8.11376
G1 X80.685 Y120.013 E8.12587
G1 X80.456 Y117.235 E8.26493
G1 X80.159 Y114.551 E8.39965
G1 X79.78 Y111.823 E8.53706
G1 X79.327 Y109.139 E8.67286
G1 X79.161 Y108.288 E8.71612
G1 X79.044 Y107.635 E8.74921
G1 X78.989 Y107.101 E8.776
G1 X79.01 Y106.6 E8.80101
G1 X79.099 Y105.804 E8.84097
G1 X79.115 Y105.68 E8.84721
G1 X79.173 Y105.286 E8.86708
G1 X79.291 Y104.762 E8.89388
G1 X79.506 Y104.219 E8.92301
G1 X79.586 Y104.056 E8.93207
G1 X80.769 Y101.558 E9.06997
G1 X81.867 Y99.055 E9.20633
G1 X82.891 Y96.535 E9.34204
G1 X83.846 Y93.976 E9.47831
G1 X84.149 Y93.096 E9.52474
G1 X84.376 Y92.47 E9.55796
G1 X84.596 Y91.981 E9.58471
G1 X84.858 Y91.566 E9.6092
G1 X85.317 Y90.941 E9.64788
G1 X85.659 Y90.506 E9.67549
G1 X86.022 Y90.111 E9.70225
G0 F9000 X86.316 Y90.383
G1 F1800 X86.699 Y90.082 E9.72656
G1 X86.858 Y89.975 E9.73612
G1 X89.147 Y88.392 E9.87497
G1 X91.35 Y86.775 E10.0113
G1 X93.534 Y85.075 E10.14938
G1 X95.612 Y83.36 E10.2838
G1 X96.299 Y82.762 E10.32924
G1 X96.832 Y82.313 E10.36401
G1 X97.244 Y82.018 E10.38929
G1 X97.61 Y81.829 E10.40984
G1 X98.338 Y81.51 E10.4495
G1 X98.811 Y81.32 E10.47493
G1 X99.294 Y81.17 E10.50016
G1 X99.772 Y81.101 E10.52425
G1 X100.037 Y81.083 E10.5375
G1 X102.77 Y80.858 E10.67432
G1 X105.545 Y80.551 E10.81361
G1 X108.192 Y80.182 E10.94694
G1 X110.932 Y79.72 E11.08557
G1 X111.782 Y79.555 E11.12877
G1 X112.436 Y79.438 E11.16192
G1 X112.94 Y79.389 E11.18718
G1 X113.356 Y79.408 E11.20795
G1 X114.152 Y79.497 E11.24791
G1 X114.649 Y79.568 E11.27296
G1 X115.142 Y79.68 E11.29818
G1 X115.59 Y79.858 E11.32224
G1 X115.801 Y79.961 E11.33395
G1 X118.26 Y81.126 E11.4697
G1 X120.813 Y82.245 E11.60877
G1 X123.311 Y83.261 E11.74331
G1 X125.89 Y84.224 E11.88065
G1 X126.768 Y84.525 E11.92696
G1 X127.394 Y84.752 E11.96018
G1 X127.854 Y84.961 E11.98539
G1 X128.196 Y85.18 E12.00565
G1 X128.902 Y85.7 E12.04939
G1 X129.244 Y85.97 E12.07113
G1 X129.615 Y86.314 E12.09637
G1 X129.915 Y86.694 E12.12053
G1 X130.025 Y86.858 E12.13038
G1 X131.608 Y89.147 E12.26923
G1 X133.225 Y91.35 E12.40556
G1 X134.925 Y93.534 E12.54364
G1 X136.639 Y95.611 E12.67799
G1 X137.238 Y96.299 E12.7235
G1 X137.687 Y96.832 E12.75827
G1 X137.982 Y97.244 E12.78355
G1 X138.171 Y97.61 E12.8041
G1 X138.49 Y98.338 E12.84376
G1 X138.673 Y98.792 E12.86818
G1 X138.728 Y98.941 E12.8761
G1 X138.857 Y99.43 E12.90133
G1 X138.901 Y99.784 E12.91913
G1 X138.92 Y100.068 E12.93333
G1 X139.142 Y102.77 E13.06859
G1 X139.449 Y105.545 E13.20788
G1 X139.816 Y108.181 E13.34066
G1 X140.28 Y110.932 E13.47984
G1 X140.445 Y111.782 E13.52304
G1 X140.562 Y112.436 E13.55619
G1 X140.611 Y112.94 E13.58145
G1 X140.592 Y113.356 E13.60223
G1 X140.503 Y114.152 E13.64219
G1 X140.432 Y114.649 E13.66723
G1 X140.32 Y115.142 E13.69246
G1 X140.142 Y115.59 E13.71651
G1 X140.039 Y115.801 E13.72822
G1 X138.874 Y118.26 E13.86397
G1 X137.748 Y120.828 E14.00387
G1 X136.739 Y123.311 E14.13758
G1 X135.776 Y125.89 E14.27493
G1 X135.475 Y126.768 E14.32123
G1 X135.248 Y127.394 E14.35445
G1 X135.039 Y127.854 E14.37966
G1 X134.819 Y128.197 E14.39999
G1 X134.36 Y128.822 E14.43868
G1 X134.292 Y128.911 E14.44426
G1 X134.029 Y129.244 E14.46543
G1 X133.686 Y129.615 E14.49064
G1 X133.306 Y129.915 E14.5148
G1 X133.11 Y130.047 E14.52659
G1 X130.853 Y131.608 E14.6635
G1 X128.649 Y133.226 E14.7999
G1 X126.466 Y134.925 E14.93791
G1 X124.388 Y136.64 E15.07233
G1 X123.701 Y137.238 E15.11777
G1 X123.168 Y137.687 E15.15254
G1 X122.756 Y137.982 E15.17782
G1 X122.39 Y138.171 E15.19837
G1 X121.662 Y138.49 E15.23803
G1 X121.203 Y138.675 E15.26271
G1 X120.812 Y138.803 E15.28324
G1 X120.214 Y138.901 E15.31347
G1 X119.933 Y138.92 E15.32752
G1 X117.229 Y139.142 E15.46288
G1 X114.455 Y139.449 E15.60212
G1 X111.808 Y139.818 E15.73546
G1 X109.039 Y140.284 E15.87555
G1 X108.219 Y140.445 E15.91724
G1 X107.565 Y140.562 E15.95038
G1 X107.061 Y140.611 E15.97565
G1 X106.646 Y140.592 E15.99637
G1 X105.737 Y140.489 E16.04201
G1 X105.344 Y140.431 E16.06183
G1 X104.851 Y140.318 E16.08707
G1 X104.402 Y140.138 E16.1112
G1 X104.194 Y140.036 E16.12276
G1 X101.74 Y138.874 E16.25822
G1 X99.187 Y137.755 E16.39729
G1 X96.689 Y136.739 E16.53183
G1 X94.11 Y135.776 E16.66917
G1 X93.232 Y135.475 E16.71548
G1 X92.606 Y135.248 E16.7487
G1 X92.146 Y135.039 E16.77391
G1 X91.803 Y134.819 E16.79424
G1 X91.178 Y134.36 E16.83292
G1 X91.089 Y134.292 E16.83851
G1 X90.756 Y134.029 E16.85968
G1 X90.385 Y133.686 E16.88489
G1 X90.085 Y133.306 E16.90904
G1 X89.953 Y133.11 E16.92083
G1 X88.392 Y130.853 E17.05774
G1 X86.774 Y128.649 E17.19415
G1 X85.075 Y126.466 E17.33216
G1 X83.36 Y124.388 E17.46658
G1 X82.762 Y123.701 E17.51202
G1 X82.313 Y123.168 E17.54679
G1 X82.018 Y122.756 E17.57207
G1 X81.829 Y122.39 E17.59262
G1 X81.51 Y121.662 E17.63227
G1 X81.319 Y121.185 E17.65791
G1 X81.17 Y120.702 E17.68312
G1 X81.101 Y120.227 E17.70707
G1 X81.081 Y119.94 E17.72142
G1 X80.858 Y117.23 E17.85708
G1 X80.549 Y114.44 E17.99713
G1 X80.184 Y111.818 E18.1292
G1 X79.72 Y109.067 E18.26839
G1 X79.555 Y108.217 E18.31159
G1 X79.438 Y107.564 E18.34468
G1 X79.389 Y107.061 E18.3699
G1 X79.408 Y106.644 E18.39072
G1 X79.497 Y105.848 E18.43068
G1 X79.511 Y105.738 E18.43621
G1 X79.569 Y105.344 E18.45608
G1 X79.682 Y104.851 E18.48132
G1 X79.865 Y104.396 E18.50578
G1 X79.949 Y104.225 E18.51529
G1 X81.126 Y101.74 E18.65247
G1 X82.252 Y99.172 E18.79236
G1 X83.261 Y96.689 E18.92608
G1 X84.228 Y94.098 E19.06405
G1 X84.525 Y93.232 E19.10973
G1 X84.752 Y92.606 E19.14295
G1 X84.961 Y92.146 E19.16816
G1 X85.181 Y91.803 E19.18848
G1 X85.64 Y91.178 E19.22717
G1 X85.973 Y90.754 E19.25407
G1 X86.316 Y90.383 E19.27928
G1 F1500 E12.77928
;MESH:pinon.STL
G0 F9000 X87.284 Y94.764
G0 X88.352 Y94.575
G0 X92.743 Y99.577
G0 X93.054 Y99.812
G0 X93.338 Y100.168
G0 X93.498 Y100.514
G0 X93.585 Y100.967
G0 X93.564 Y101.345
G0 X91.971 Y105.677
G0 X87.994 Y105.332
G0 X87.008 Y105.337
G0 X86.012 Y105.491
G0 X85.069 Y105.79
G0 X84.157 Y106.237
G0 X83.821 Y106.475
G0 X84.069 Y106.926
G0 X84.834 Y107.598
G0 X85.664 Y108.127
G0 X86.582 Y108.534
G0 X91.878 Y109.972
G0 X91.869 Y115.701
G0 X88.618 Y116.954
G0 X87.759 Y117.457
G0 X86.972 Y118.089
G0 X86.298 Y118.825
G0 X85.749 Y119.648
G0 X85.567 Y120.04
G0 X86.012 Y120.308
G0 X86.976 Y120.499
G0 X87.996 Y120.545
G0 X88.997 Y120.438
G0 X94.289 Y119.035
G0 X97.148 Y124.001
G0 X94.956 Y126.716
G0 X94.467 Y127.574
G0 X94.104 Y128.513
G0 X93.889 Y129.489
G0 X93.82 Y130.485
G0 X93.859 Y130.911
G0 X94.378 Y130.92
G0 X95.338 Y130.594
G0 X96.215 Y130.137
G0 X97.021 Y129.55
G0 X100.915 Y125.679
G0 X104.481 Y127.735
G0 X104.764 Y127.987
G0 X105.022 Y128.368
G0 X105.153 Y128.721
G0 X105.208 Y129.179
G0 X104.615 Y131.712
G0 X105.79 Y134.931
G0 X106.151 Y135.669
G0 X106.66 Y136.378
;TYPE:WALL-INNER
G1 F1500 E19.27928
G1 F1800 X106.376 Y136.341 E19.29357
G1 X106.341 Y136.291 E19.29661
G1 X106.088 Y135.927 E19.31873
G1 X105.632 Y134.997 E19.3704
G1 X105.323 Y134.024 E19.42133
G1 X105.166 Y133.009 E19.47257
G1 X105.161 Y131.991 E19.52336
G1 X105.314 Y130.955 E19.57561
G1 X105.708 Y129.672 E19.64257
G1 X105.772 Y129.183 E19.66717
G1 X105.703 Y128.589 E19.69701
G1 X105.524 Y128.108 E19.72261
G1 X105.188 Y127.616 E19.75234
G1 X104.805 Y127.272 E19.77802
G1 X104.324 Y127.014 E19.80525
G1 X103.151 Y126.571 E19.86781
G1 X101.962 Y126.036 E19.93286
G1 X101.444 Y125.879 E19.95986
G1 X100.928 Y125.851 E19.98564
G1 X100.34 Y125.966 E20.01553
G1 X99.871 Y126.181 E20.04127
G1 X99.414 Y126.547 E20.07048
G1 X99.173 Y126.846 E20.08964
G1 X99.092 Y126.975 E20.09724
G1 X98.477 Y128.13 E20.16252
G1 X97.856 Y128.964 E20.2144
G1 X97.131 Y129.682 E20.26531
G1 X96.309 Y130.281 E20.31605
G1 X95.403 Y130.753 E20.36702
G1 X94.423 Y131.086 E20.41865
G1 X93.98 Y131.165 E20.4411
G1 X93.918 Y131.175 E20.44424
G1 X93.693 Y131.003 E20.45837
G1 X93.688 Y130.941 E20.46147
G1 X93.649 Y130.485 E20.4843
G1 X93.719 Y129.468 E20.53516
G1 X93.941 Y128.461 E20.58661
G1 X94.311 Y127.504 E20.6378
G1 X94.816 Y126.619 E20.68863
G1 X95.449 Y125.823 E20.73937
G1 X96.449 Y124.89 E20.8076
G1 X96.747 Y124.497 E20.83221
G1 X96.983 Y123.952 E20.86184
G1 X97.068 Y123.451 E20.88719
G1 X97.025 Y122.85 E20.91725
G1 X96.864 Y122.36 E20.94298
G1 X96.578 Y121.897 E20.97013
G1 X95.776 Y120.919 E21.03324
G1 X95.025 Y119.872 E21.09752
G1 X94.645 Y119.468 E21.12519
G1 X94.213 Y119.19 E21.15082
G1 X93.654 Y118.996 E21.18034
G1 X93.138 Y118.949 E21.20619
G1 X92.544 Y119.04 E21.23617
G1 X92.096 Y119.226 E21.26037
G1 X90.95 Y119.942 E21.32779
G1 X90.01 Y120.349 E21.37889
G1 X89.026 Y120.607 E21.42964
G1 X88.001 Y120.717 E21.48107
G1 X86.956 Y120.669 E21.53326
G1 X85.97 Y120.474 E21.58341
G1 X85.544 Y120.32 E21.60601
G1 X85.486 Y120.299 E21.60908
G1 X85.376 Y120.034 E21.6234
G1 X85.402 Y119.978 E21.62648
G1 X85.6 Y119.561 E21.64951
G1 X86.162 Y118.72 E21.69997
G1 X86.856 Y117.963 E21.75121
G1 X87.657 Y117.318 E21.80252
G1 X88.542 Y116.8 E21.85368
G1 X89.489 Y116.427 E21.90446
G1 X90.816 Y116.12 E21.97241
G1 X91.27 Y115.93 E21.99696
G1 X91.75 Y115.576 E22.02672
G1 X92.078 Y115.178 E22.05245
G1 X92.098 Y115.135 E22.05481
G1 X92.342 Y114.631 E22.08275
G1 X92.444 Y114.137 E22.10792
G1 X92.428 Y113.598 E22.13482
G1 X92.216 Y112.299 E22.20048
G1 X92.094 Y111.063 E22.26245
G1 X91.968 Y110.527 E22.28992
G1 X91.735 Y110.068 E22.3156
G1 X91.341 Y109.614 E22.34559
G1 X90.915 Y109.313 E22.37161
G1 X90.364 Y109.103 E22.40103
G1 X89.882 Y109.039 E22.42529
G1 X88.525 Y109.084 E22.49303
G1 X87.523 Y108.969 E22.54334
G1 X86.526 Y108.696 E22.59492
G1 X85.582 Y108.277 E22.64644
G1 X84.729 Y107.734 E22.69689
G1 X83.952 Y107.051 E22.7485
G1 X83.662 Y106.707 E22.77095
G1 X83.622 Y106.66 E22.77403
G1 X83.659 Y106.376 E22.78832
G1 X83.709 Y106.341 E22.79136
G1 X84.073 Y106.088 E22.81348
G1 X85.003 Y105.632 E22.86515
G1 X85.976 Y105.323 E22.91609
G1 X86.991 Y105.166 E22.96733
G1 X88.009 Y105.161 E23.01812
G1 X89.045 Y105.314 E23.07036
G1 X90.328 Y105.708 E23.13732
G1 X90.817 Y105.772 E23.16193
G1 X91.411 Y105.703 E23.19176
G1 X91.892 Y105.524 E23.21736
G1 X92.384 Y105.188 E23.24709
G1 X92.728 Y104.805 E23.27277
G1 X92.986 Y104.324 E23.3
G1 X93.429 Y103.148 E23.3627
G1 X93.964 Y101.962 E23.42761
G1 X94.121 Y101.444 E23.45461
G1 X94.149 Y100.928 E23.4804
G1 X94.034 Y100.34 E23.51029
G1 X93.819 Y99.871 E23.53603
G1 X93.453 Y99.414 E23.56524
G1 X93.154 Y99.173 E23.5844
G1 X93.025 Y99.092 E23.592
G1 X91.87 Y98.477 E23.65728
G1 X91.036 Y97.856 E23.70916
G1 X90.318 Y97.131 E23.76006
G1 X89.717 Y96.306 E23.81098
G1 X89.247 Y95.403 E23.86177
G1 X88.914 Y94.423 E23.91341
G1 X88.835 Y93.98 E23.93586
G1 X88.825 Y93.918 E23.93899
G1 X88.997 Y93.693 E23.95312
G1 X89.059 Y93.688 E23.95623
G1 X89.515 Y93.649 E23.97906
G1 X90.528 Y93.718 E24.02972
G1 X91.539 Y93.941 E24.08137
G1 X92.496 Y94.311 E24.13256
G1 X93.381 Y94.816 E24.18339
G1 X94.177 Y95.449 E24.23413
G1 X95.11 Y96.449 E24.30236
G1 X95.503 Y96.747 E24.32697
G1 X96.048 Y96.983 E24.3566
G1 X96.549 Y97.068 E24.38195
G1 X97.15 Y97.025 E24.41201
G1 X97.64 Y96.864 E24.43774
G1 X98.103 Y96.578 E24.46489
G1 X99.088 Y95.771 E24.52842
G1 X100.092 Y95.051 E24.59006
G1 X100.383 Y94.808 E24.60898
G1 X100.739 Y94.346 E24.63807
G1 X100.946 Y93.876 E24.6637
G1 X101.039 Y93.331 E24.69128
G1 X101.048 Y93.284 E24.69367
G1 X101.013 Y92.767 E24.71952
G1 X100.84 Y92.229 E24.74771
G1 X100.755 Y92.067 E24.75684
G1 X100.058 Y90.95 E24.82253
G1 X99.651 Y90.01 E24.87363
G1 X99.393 Y89.024 E24.92448
G1 X99.283 Y88 E24.97586
G1 X99.331 Y86.956 E25.028
G1 X99.526 Y85.97 E25.07815
G1 X99.68 Y85.544 E25.10075
G1 X99.701 Y85.486 E25.10382
G1 X99.966 Y85.376 E25.11814
G1 X100.022 Y85.402 E25.12122
G1 X100.439 Y85.6 E25.14425
G1 X101.28 Y86.162 E25.19471
G1 X102.037 Y86.856 E25.24595
G1 X102.682 Y87.657 E25.29726
G1 X103.2 Y88.542 E25.34842
G1 X103.572 Y89.487 E25.39908
G1 X103.88 Y90.816 E25.46714
